(.../Dokumente/ulp/pcb-gcode.ulp)
(Copyright 2005 - 2012 by John Johnson)
(See readme.txt for licensing terms.)
(This file generated from the board:)
(.../eagle/Wemos GYBMEP/Wemos_GYBMEP.brd)
(Current profile is .../Dokumente/ulp/profiles/generic.pp  )
(This file generated 04.03.2018 06:27:38)
(Settings from pcb-machine.h)
(spindle on time = 3.0000)
(spindle speed = 12000.0000)
(milling depth = -2.0000)
(tool change at 0.0000 0.0000 25.4000 )
(feed rate xy = F254.00 )
(feed rate z  = F127.00 )
(Z Axis Settings)
(  High     Up        Down     Drill)
(12.7000 	2.5400 	-0.2540 	-2.0000 )
(Settings from pcb-defaults.h)
(isolate min = 0.0254)
(isolate max = 0.5080)
(isolate step = 0.1270)
(Generated bottom outlines, bottom drill, )
(Unit of measure: mm)
(Metric Mode)
G21
(Absolute Coordinates)
G90
S12000
G00 Z12.7000 
G00 X0.0000 Y0.0000 
M03
G04 P3.000000
G00 Z2.5400 
G00 X-2.7050 Y0.0000 
G01 Z-0.5000 F127.00 
G01 X-26.2000 Y0.0000 F254.00 
G01 X-26.2000 Y32.1500 
G02 X-23.2600 Y35.0900 R2.9400 F254.00 
G01 X-2.9400 Y35.0900 
G02 X0.0000 Y32.1500 R2.9400 F254.00 
G01 X0.0000 Y7.6200 
G01 X-2.7050 Y6.9850 
G01 X-2.7050 Y0.0000 
G01 Z-1.0000 F127.00 
G01 X-26.2000 Y0.0000 F254.00 
G01 X-26.2000 Y32.1500 
G02 X-23.2600 Y35.0900 R2.9400 F254.00 
G01 X-2.9400 Y35.0900 
G02 X0.0000 Y32.1500 R2.9400 F254.00 
G01 X0.0000 Y7.6200 
G01 X-2.7050 Y6.9850 
G01 X-2.7050 Y0.0000 
G01 Z-1.5000 F127.00 
G01 X-26.2000 Y0.0000 F254.00 
G01 X-26.2000 Y32.1500 
G02 X-23.2600 Y35.0900 R2.9400 F254.00 
G01 X-2.9400 Y35.0900 
G02 X0.0000 Y32.1500 R2.9400 F254.00 
G01 X0.0000 Y7.6200 
G01 X-2.7050 Y6.9850 
G01 X-2.7050 Y0.0000 
G01 Z-2.0000 F127.00 
G01 X-26.2000 Y0.0000 F254.00 
G01 X-26.2000 Y32.1500 
G02 X-23.2600 Y35.0900 R2.9400 F254.00 
G01 X-2.9400 Y35.0900 
G02 X0.0000 Y32.1500 R2.9400 F254.00 
G01 X0.0000 Y7.6200 
G01 X-2.7050 Y6.9850 
G01 X-2.7050 Y0.0000 
G00 Z12.7000 
M05
M02
