(.../Dokumente/ulp/pcb-gcode.ulp)
(Copyright 2005 - 2012 by John Johnson)
(See readme.txt for licensing terms.)
(This file generated from the board:)
(.../eagle/Wemos GYBMEP/Wemos_GYBMEP.brd)
(Current profile is .../Dokumente/ulp/profiles/generic.pp  )
(This file generated 04.03.2018 06:27:38)
(Settings from pcb-machine.h)
(spindle on time = 3.0000)
(spindle speed = 12000.0000)
(tool change at 0.0000 0.0000 25.4000 )
(feed rate xy = F0.00  )
(feed rate z  = F508.00 )
(Z Axis Settings)
(  High     Up        Down     Drill)
(12.7000 	2.5400 	-0.2540 	-2.0000 )
(Settings from pcb-defaults.h)
(isolate min = 0.0254)
(isolate max = 0.5080)
(isolate step = 0.1270)
(Generated bottom outlines, bottom drill, )
(Unit of measure: mm)
( Tool|       Size       |  Min Sub |  Max Sub |   Count )
( T01  0.800mm 0.0315in 0.0000in 0.0000in )
( T02  0.813mm 0.0320in 0.0000in 0.0000in )
( T03  1.016mm 0.0400in 0.0000in 0.0000in )
(Metric Mode)
G21
(Absolute Coordinates)
G90
S12000
G00 Z12.7000 
G00 X0.0000 Y0.0000 
M03
G04 P3.000000
M05
G00 Z25.4000 
M06 T01  ; 0.8000 
G01 Z0.0000 F508.00 
M06 
G00 Z2.5400 
M03
G04 P3.000000
G00 X-9.5250 Y16.5100 
G01 Z-2.0000 F508.00 
G00 Z2.5400 
G00 X-12.0650 Y16.5100 
G01 Z-2.0000 F508.00 
G00 Z2.5400 
G00 X-14.6050 Y16.5100 
G01 Z-2.0000 F508.00 
G00 Z2.5400 
G00 X-17.1450 Y16.5100 
G01 Z-2.0000 F508.00 
G00 Z2.5400 
M05
G00 Z25.4000 
G00 X0.0000 Y0.0000 
M06 T02  ; 0.8128 
G01 Z0.0000 F508.00 
M06 
G00 Z2.5400 
M03
G04 P3.000000
G00 X-11.1125 Y6.3500 
G01 Z-2.0000 F508.00 
G00 Z2.5400 
G00 X-16.1925 Y6.3500 
G01 Z-2.0000 F508.00 
G00 Z2.5400 
M05
G00 Z25.4000 
G00 X0.0000 Y0.0000 
M06 T03  ; 1.0160 
G01 Z0.0000 F508.00 
M06 
G00 Z2.5400 
M03
G04 P3.000000
G00 X-1.6700 Y9.2900 
G01 Z-2.0000 F508.00 
G00 Z2.5400 
G00 X-1.6700 Y11.8300 
G01 Z-2.0000 F508.00 
G00 Z2.5400 
G00 X-1.6700 Y14.3700 
G01 Z-2.0000 F508.00 
G00 Z2.5400 
G00 X-1.6700 Y16.9100 
G01 Z-2.0000 F508.00 
G00 Z2.5400 
G00 X-1.6700 Y19.4500 
G01 Z-2.0000 F508.00 
G00 Z2.5400 
G00 X-1.6700 Y21.9900 
G01 Z-2.0000 F508.00 
G00 Z2.5400 
G00 X-1.6700 Y24.5300 
G01 Z-2.0000 F508.00 
G00 Z2.5400 
G00 X-1.6700 Y27.0700 
G01 Z-2.0000 F508.00 
G00 Z2.5400 
G00 X-24.5300 Y27.0700 
G01 Z-2.0000 F508.00 
G00 Z2.5400 
G00 X-24.5300 Y24.5300 
G01 Z-2.0000 F508.00 
G00 Z2.5400 
G00 X-24.5300 Y21.9900 
G01 Z-2.0000 F508.00 
G00 Z2.5400 
G00 X-24.5300 Y19.4500 
G01 Z-2.0000 F508.00 
G00 Z2.5400 
G00 X-24.5300 Y16.9100 
G01 Z-2.0000 F508.00 
G00 Z2.5400 
G00 X-24.5300 Y14.3700 
G01 Z-2.0000 F508.00 
G00 Z2.5400 
G00 X-24.5300 Y11.8300 
G01 Z-2.0000 F508.00 
G00 Z2.5400 
G00 X-24.5300 Y9.2900 
G01 Z-2.0000 F508.00 
G00 Z2.5400 
T01 
G00 Z12.7000 
M05
M02
