(.../Dokumente/ulp/pcb-gcode.ulp)
(Copyright 2005 - 2012 by John Johnson)
(See readme.txt for licensing terms.)
(This file generated from the board:)
(.../eagle/Wemos GYBMEP/Wemos_GYBMEP.brd)
(Current profile is .../Dokumente/ulp/profiles/generic.pp  )
(This file generated 04.03.2018 06:27:37)
(Settings from pcb-machine.h)
(spindle on time = 3.0000)
(  Tool Size)
(0.2000 )
(spindle speed = 12000.0000)
(tool change at 0.0000 0.0000 25.4000 )
(feed rate xy = F508.00 )
(feed rate z  = F254.00 )
(Z Axis Settings)
(  High     Up        Down     Drill)
(12.7000 	2.5400 	-0.2540 	-2.0000 )
(Settings from pcb-defaults.h)
(isolate min = 0.0254)
(isolate max = 0.5080)
(isolate step = 0.1270)
(Generated bottom outlines, bottom drill, )
(Unit of measure: mm)
(Metric Mode)
G21
(Absolute Coordinates)
G90
S12000
G00 Z12.7000 
G00 X0.0000 Y0.0000 
M03
G04 P3.000000
G00 Z2.5400 
G00 X-0.2187 Y8.7243 
G01 Z-0.2540 F254.00 
G01 X-0.3423 Y8.6007 F508.00 
G01 X-0.4877 Y8.5036 
G01 X-0.6492 Y8.4367 
G01 X-0.8206 Y8.4026 
G01 X-2.5194 Y8.4026 
G01 X-2.6908 Y8.4367 
G01 X-2.8523 Y8.5036 
G01 X-2.9977 Y8.6007 
G01 X-3.1213 Y8.7243 
G01 X-3.1439 Y8.7582 
G01 X-7.1647 Y8.7582 
G01 X-9.9985 Y5.9245 
G01 X-10.1197 Y5.8544 
G01 X-10.1444 Y5.8478 
G01 X-10.1797 Y5.7784 
G01 X-10.2806 Y5.6395 
G01 X-10.4020 Y5.5181 
G01 X-10.5409 Y5.4172 
G01 X-10.6939 Y5.3393 
G01 X-10.8571 Y5.2863 
G01 X-11.0267 Y5.2594 
G01 X-11.1983 Y5.2594 
G01 X-11.3679 Y5.2863 
G01 X-11.5311 Y5.3393 
G01 X-11.6841 Y5.4172 
G01 X-11.8230 Y5.5181 
G01 X-11.9444 Y5.6395 
G01 X-12.0453 Y5.7784 
G01 X-12.1232 Y5.9314 
G01 X-12.1762 Y6.0946 
G01 X-12.2031 Y6.2642 
G01 X-12.2031 Y6.4358 
G01 X-12.1762 Y6.6054 
G01 X-12.1232 Y6.7686 
G01 X-12.0453 Y6.9216 
G01 X-11.9444 Y7.0605 
G01 X-11.8230 Y7.1819 
G01 X-11.6841 Y7.2828 
G01 X-11.5311 Y7.3607 
G01 X-11.3679 Y7.4137 
G01 X-11.1983 Y7.4406 
G01 X-11.0267 Y7.4406 
G01 X-10.8571 Y7.4137 
G01 X-10.6939 Y7.3607 
G01 X-10.5409 Y7.2828 
G01 X-10.4020 Y7.1819 
G01 X-10.3236 Y7.1035 
G01 X-8.1371 Y9.2900 
G01 X-9.8515 Y11.0045 
G01 X-9.9505 Y11.1035 
G01 X-10.0206 Y11.2247 
G01 X-10.0568 Y11.3600 
G01 X-10.0568 Y15.5570 
G01 X-10.0966 Y15.5772 
G01 X-10.2355 Y15.6781 
G01 X-10.3569 Y15.7995 
G01 X-10.4578 Y15.9384 
G01 X-10.5357 Y16.0914 
G01 X-10.5887 Y16.2546 
G01 X-10.6156 Y16.4242 
G01 X-10.6156 Y16.5958 
G01 X-10.5887 Y16.7654 
G01 X-10.5357 Y16.9286 
G01 X-10.4578 Y17.0816 
G01 X-10.3569 Y17.2205 
G01 X-10.2355 Y17.3419 
G01 X-10.0966 Y17.4428 
G01 X-9.9436 Y17.5207 
G01 X-9.7804 Y17.5737 
G01 X-9.6108 Y17.6006 
G01 X-9.4392 Y17.6006 
G01 X-9.2696 Y17.5737 
G01 X-9.1064 Y17.5207 
G01 X-8.9534 Y17.4428 
G01 X-8.8145 Y17.3419 
G01 X-8.6931 Y17.2205 
G01 X-8.5922 Y17.0816 
G01 X-8.5143 Y16.9286 
G01 X-8.4613 Y16.7654 
G01 X-8.4344 Y16.5958 
G01 X-8.4344 Y16.4242 
G01 X-8.4613 Y16.2546 
G01 X-8.5143 Y16.0914 
G01 X-8.5922 Y15.9384 
G01 X-8.6931 Y15.7995 
G01 X-8.8145 Y15.6781 
G01 X-8.9534 Y15.5772 
G01 X-8.9932 Y15.5570 
G01 X-8.9932 Y11.6503 
G01 X-7.1647 Y9.8218 
G01 X-3.1439 Y9.8218 
G01 X-3.1213 Y9.8557 
G01 X-2.9977 Y9.9793 
G01 X-2.8523 Y10.0764 
G01 X-2.6908 Y10.1433 
G01 X-2.5194 Y10.1774 
G01 X-0.8206 Y10.1774 
G01 X-0.6492 Y10.1433 
G01 X-0.4877 Y10.0764 
G01 X-0.3423 Y9.9793 
G01 X-0.2187 Y9.8557 
G01 X-0.1216 Y9.7103 
G01 X-0.0547 Y9.5488 
G01 X-0.0206 Y9.3774 
G01 X-0.0206 Y9.2026 
G01 X-0.0547 Y9.0312 
G01 X-0.1216 Y8.8697 
G01 X-0.2187 Y8.7243 
G00 Z2.5400 
G00 X-0.2187 Y11.2643 
G01 Z-0.2540 F254.00 
G01 X-0.3423 Y11.1407 F508.00 
G01 X-0.4877 Y11.0436 
G01 X-0.6492 Y10.9767 
G01 X-0.8206 Y10.9426 
G01 X-2.5194 Y10.9426 
G01 X-2.6908 Y10.9767 
G01 X-2.8523 Y11.0436 
G01 X-2.9977 Y11.1407 
G01 X-3.1213 Y11.2643 
G01 X-3.2184 Y11.4097 
G01 X-3.2853 Y11.5712 
G01 X-3.3194 Y11.7426 
G01 X-3.3194 Y11.9174 
G01 X-3.2853 Y12.0888 
G01 X-3.2184 Y12.2503 
G01 X-3.1213 Y12.3957 
G01 X-2.9977 Y12.5193 
G01 X-2.8523 Y12.6164 
G01 X-2.6908 Y12.6833 
G01 X-2.5194 Y12.7174 
G01 X-0.8206 Y12.7174 
G01 X-0.6492 Y12.6833 
G01 X-0.4877 Y12.6164 
G01 X-0.3423 Y12.5193 
G01 X-0.2187 Y12.3957 
G01 X-0.1216 Y12.2503 
G01 X-0.0547 Y12.0888 
G01 X-0.0206 Y11.9174 
G01 X-0.0206 Y11.7426 
G01 X-0.0547 Y11.5712 
G01 X-0.1216 Y11.4097 
G01 X-0.2187 Y11.2643 
G00 Z2.5400 
G00 X-0.2187 Y13.8043 
G01 Z-0.2540 F254.00 
G01 X-0.3423 Y13.6807 F508.00 
G01 X-0.4877 Y13.5836 
G01 X-0.6492 Y13.5167 
G01 X-0.8206 Y13.4826 
G01 X-2.5194 Y13.4826 
G01 X-2.6908 Y13.5167 
G01 X-2.8523 Y13.5836 
G01 X-2.9977 Y13.6807 
G01 X-3.1213 Y13.8043 
G01 X-3.2184 Y13.9497 
G01 X-3.2853 Y14.1112 
G01 X-3.3194 Y14.2826 
G01 X-3.3194 Y14.4574 
G01 X-3.2853 Y14.6288 
G01 X-3.2184 Y14.7903 
G01 X-3.1213 Y14.9357 
G01 X-2.9977 Y15.0593 
G01 X-2.8523 Y15.1564 
G01 X-2.6908 Y15.2233 
G01 X-2.5194 Y15.2574 
G01 X-0.8206 Y15.2574 
G01 X-0.6492 Y15.2233 
G01 X-0.4877 Y15.1564 
G01 X-0.3423 Y15.0593 
G01 X-0.2187 Y14.9357 
G01 X-0.1216 Y14.7903 
G01 X-0.0547 Y14.6288 
G01 X-0.0206 Y14.4574 
G01 X-0.0206 Y14.2826 
G01 X-0.0547 Y14.1112 
G01 X-0.1216 Y13.9497 
G01 X-0.2187 Y13.8043 
G00 Z2.5400 
G00 X-0.2187 Y16.3443 
G01 Z-0.2540 F254.00 
G01 X-0.3423 Y16.2207 F508.00 
G01 X-0.4877 Y16.1236 
G01 X-0.6492 Y16.0567 
G01 X-0.8206 Y16.0226 
G01 X-2.5194 Y16.0226 
G01 X-2.6908 Y16.0567 
G01 X-2.8523 Y16.1236 
G01 X-2.9977 Y16.2207 
G01 X-3.1213 Y16.3443 
G01 X-3.2184 Y16.4897 
G01 X-3.2853 Y16.6512 
G01 X-3.3194 Y16.8226 
G01 X-3.3194 Y16.9974 
G01 X-3.2853 Y17.1688 
G01 X-3.2184 Y17.3303 
G01 X-3.1213 Y17.4757 
G01 X-2.9977 Y17.5993 
G01 X-2.8523 Y17.6964 
G01 X-2.6908 Y17.7633 
G01 X-2.5194 Y17.7974 
G01 X-0.8206 Y17.7974 
G01 X-0.6492 Y17.7633 
G01 X-0.4877 Y17.6964 
G01 X-0.3423 Y17.5993 
G01 X-0.2187 Y17.4757 
G01 X-0.1216 Y17.3303 
G01 X-0.0547 Y17.1688 
G01 X-0.0206 Y16.9974 
G01 X-0.0206 Y16.8226 
G01 X-0.0547 Y16.6512 
G01 X-0.1216 Y16.4897 
G01 X-0.2187 Y16.3443 
G00 Z2.5400 
G00 X-0.2187 Y18.8843 
G01 Z-0.2540 F254.00 
G01 X-0.3423 Y18.7607 F508.00 
G01 X-0.4877 Y18.6636 
G01 X-0.6492 Y18.5967 
G01 X-0.8206 Y18.5626 
G01 X-2.5194 Y18.5626 
G01 X-2.6908 Y18.5967 
G01 X-2.8523 Y18.6636 
G01 X-2.9977 Y18.7607 
G01 X-3.1213 Y18.8843 
G01 X-3.2184 Y19.0297 
G01 X-3.2853 Y19.1912 
G01 X-3.3194 Y19.3626 
G01 X-3.3194 Y19.5374 
G01 X-3.2853 Y19.7088 
G01 X-3.2184 Y19.8703 
G01 X-3.1213 Y20.0157 
G01 X-2.9977 Y20.1393 
G01 X-2.8523 Y20.2364 
G01 X-2.6908 Y20.3033 
G01 X-2.5194 Y20.3374 
G01 X-0.8206 Y20.3374 
G01 X-0.6492 Y20.3033 
G01 X-0.4877 Y20.2364 
G01 X-0.3423 Y20.1393 
G01 X-0.2187 Y20.0157 
G01 X-0.1216 Y19.8703 
G01 X-0.0547 Y19.7088 
G01 X-0.0206 Y19.5374 
G01 X-0.0206 Y19.3626 
G01 X-0.0547 Y19.1912 
G01 X-0.1216 Y19.0297 
G01 X-0.2187 Y18.8843 
G00 Z2.5400 
G00 X-0.2187 Y21.4243 
G01 Z-0.2540 F254.00 
G01 X-0.3423 Y21.3007 F508.00 
G01 X-0.4877 Y21.2036 
G01 X-0.6492 Y21.1367 
G01 X-0.8206 Y21.1026 
G01 X-2.5194 Y21.1026 
G01 X-2.6908 Y21.1367 
G01 X-2.8523 Y21.2036 
G01 X-2.9977 Y21.3007 
G01 X-3.1213 Y21.4243 
G01 X-3.2184 Y21.5697 
G01 X-3.2853 Y21.7312 
G01 X-3.3194 Y21.9026 
G01 X-3.3194 Y22.0774 
G01 X-3.2853 Y22.2488 
G01 X-3.2184 Y22.4103 
G01 X-3.1213 Y22.5557 
G01 X-2.9977 Y22.6793 
G01 X-2.8523 Y22.7764 
G01 X-2.6908 Y22.8433 
G01 X-2.5194 Y22.8774 
G01 X-0.8206 Y22.8774 
G01 X-0.6492 Y22.8433 
G01 X-0.4877 Y22.7764 
G01 X-0.3423 Y22.6793 
G01 X-0.2187 Y22.5557 
G01 X-0.1216 Y22.4103 
G01 X-0.0547 Y22.2488 
G01 X-0.0206 Y22.0774 
G01 X-0.0206 Y21.9026 
G01 X-0.0547 Y21.7312 
G01 X-0.1216 Y21.5697 
G01 X-0.2187 Y21.4243 
G00 Z2.5400 
G00 X-0.2187 Y23.9643 
G01 Z-0.2540 F254.00 
G01 X-0.3423 Y23.8407 F508.00 
G01 X-0.4877 Y23.7436 
G01 X-0.6492 Y23.6767 
G01 X-0.8206 Y23.6426 
G01 X-2.5194 Y23.6426 
G01 X-2.6908 Y23.6767 
G01 X-2.8523 Y23.7436 
G01 X-2.9977 Y23.8407 
G01 X-3.1213 Y23.9643 
G01 X-3.2184 Y24.1097 
G01 X-3.2853 Y24.2712 
G01 X-3.3194 Y24.4426 
G01 X-3.3194 Y24.6174 
G01 X-3.2853 Y24.7888 
G01 X-3.2184 Y24.9503 
G01 X-3.1213 Y25.0957 
G01 X-2.9977 Y25.2193 
G01 X-2.8523 Y25.3164 
G01 X-2.6908 Y25.3833 
G01 X-2.5194 Y25.4174 
G01 X-0.8206 Y25.4174 
G01 X-0.6492 Y25.3833 
G01 X-0.4877 Y25.3164 
G01 X-0.3423 Y25.2193 
G01 X-0.2187 Y25.0957 
G01 X-0.1216 Y24.9503 
G01 X-0.0547 Y24.7888 
G01 X-0.0206 Y24.6174 
G01 X-0.0206 Y24.4426 
G01 X-0.0547 Y24.2712 
G01 X-0.1216 Y24.1097 
G01 X-0.2187 Y23.9643 
G00 Z2.5400 
G00 X-0.2187 Y26.5043 
G01 Z-0.2540 F254.00 
G01 X-0.3423 Y26.3807 F508.00 
G01 X-0.4877 Y26.2836 
G01 X-0.6492 Y26.2167 
G01 X-0.8206 Y26.1826 
G01 X-2.5194 Y26.1826 
G01 X-2.6908 Y26.2167 
G01 X-2.8523 Y26.2836 
G01 X-2.9977 Y26.3807 
G01 X-3.1213 Y26.5043 
G01 X-3.2184 Y26.6497 
G01 X-3.2853 Y26.8112 
G01 X-3.3194 Y26.9826 
G01 X-3.3194 Y27.1574 
G01 X-3.2853 Y27.3288 
G01 X-3.2184 Y27.4903 
G01 X-3.1213 Y27.6357 
G01 X-2.9977 Y27.7593 
G01 X-2.8523 Y27.8564 
G01 X-2.6908 Y27.9233 
G01 X-2.5194 Y27.9574 
G01 X-0.8206 Y27.9574 
G01 X-0.6492 Y27.9233 
G01 X-0.4877 Y27.8564 
G01 X-0.3423 Y27.7593 
G01 X-0.2187 Y27.6357 
G01 X-0.1216 Y27.4903 
G01 X-0.0547 Y27.3288 
G01 X-0.0206 Y27.1574 
G01 X-0.0206 Y26.9826 
G01 X-0.0547 Y26.8112 
G01 X-0.1216 Y26.6497 
G01 X-0.2187 Y26.5043 
G00 Z2.5400 
G00 X-11.3545 Y17.3419 
G01 Z-0.2540 F254.00 
G01 X-11.2331 Y17.2205 F508.00 
G01 X-11.1322 Y17.0816 
G01 X-11.0543 Y16.9286 
G01 X-11.0013 Y16.7654 
G01 X-10.9744 Y16.5958 
G01 X-10.9744 Y16.4242 
G01 X-11.0013 Y16.2546 
G01 X-11.0543 Y16.0914 
G01 X-11.1322 Y15.9384 
G01 X-11.2331 Y15.7995 
G01 X-11.3545 Y15.6781 
G01 X-11.4934 Y15.5772 
G01 X-11.5332 Y15.5570 
G01 X-11.5332 Y13.9000 
G01 X-11.5694 Y13.7647 
G01 X-11.6395 Y13.6435 
G01 X-11.7385 Y13.5445 
G01 X-13.8785 Y11.4045 
G01 X-13.9997 Y11.3344 
G01 X-14.1350 Y11.2982 
G01 X-15.9782 Y11.2982 
G01 X-15.9782 Y7.4203 
G01 X-15.9371 Y7.4137 
G01 X-15.7739 Y7.3607 
G01 X-15.6209 Y7.2828 
G01 X-15.4820 Y7.1819 
G01 X-15.3606 Y7.0605 
G01 X-15.2597 Y6.9216 
G01 X-15.1818 Y6.7686 
G01 X-15.1288 Y6.6054 
G01 X-15.1019 Y6.4358 
G01 X-15.1019 Y6.2642 
G01 X-15.1288 Y6.0946 
G01 X-15.1818 Y5.9314 
G01 X-15.2597 Y5.7784 
G01 X-15.3606 Y5.6395 
G01 X-15.4820 Y5.5181 
G01 X-15.6209 Y5.4172 
G01 X-15.7739 Y5.3393 
G01 X-15.9371 Y5.2863 
G01 X-16.1067 Y5.2594 
G01 X-16.2783 Y5.2594 
G01 X-16.4479 Y5.2863 
G01 X-16.6111 Y5.3393 
G01 X-16.7641 Y5.4172 
G01 X-16.9030 Y5.5181 
G01 X-17.0244 Y5.6395 
G01 X-17.1253 Y5.7784 
G01 X-17.2032 Y5.9314 
G01 X-17.2562 Y6.0946 
G01 X-17.2831 Y6.2642 
G01 X-17.2831 Y6.4358 
G01 X-17.2562 Y6.6054 
G01 X-17.2032 Y6.7686 
G01 X-17.1253 Y6.9216 
G01 X-17.0418 Y7.0365 
G01 X-17.0418 Y11.2982 
G01 X-23.0561 Y11.2982 
G01 X-23.0787 Y11.2643 
G01 X-23.2023 Y11.1407 
G01 X-23.3477 Y11.0436 
G01 X-23.5092 Y10.9767 
G01 X-23.6806 Y10.9426 
G01 X-25.3794 Y10.9426 
G01 X-25.5508 Y10.9767 
G01 X-25.7123 Y11.0436 
G01 X-25.8577 Y11.1407 
G01 X-25.9813 Y11.2643 
G01 X-26.0784 Y11.4097 
G01 X-26.1453 Y11.5712 
G01 X-26.1794 Y11.7426 
G01 X-26.1794 Y11.9174 
G01 X-26.1453 Y12.0888 
G01 X-26.0784 Y12.2503 
G01 X-25.9813 Y12.3957 
G01 X-25.8577 Y12.5193 
G01 X-25.7123 Y12.6164 
G01 X-25.5508 Y12.6833 
G01 X-25.3794 Y12.7174 
G01 X-23.6806 Y12.7174 
G01 X-23.5092 Y12.6833 
G01 X-23.3477 Y12.6164 
G01 X-23.2023 Y12.5193 
G01 X-23.0787 Y12.3957 
G01 X-23.0561 Y12.3618 
G01 X-14.4253 Y12.3618 
G01 X-12.5968 Y14.1903 
G01 X-12.5968 Y15.5570 
G01 X-12.6366 Y15.5772 
G01 X-12.7755 Y15.6781 
G01 X-12.8969 Y15.7995 
G01 X-12.9978 Y15.9384 
G01 X-13.0757 Y16.0914 
G01 X-13.1287 Y16.2546 
G01 X-13.1556 Y16.4242 
G01 X-13.1556 Y16.5958 
G01 X-13.1287 Y16.7654 
G01 X-13.0757 Y16.9286 
G01 X-12.9978 Y17.0816 
G01 X-12.8969 Y17.2205 
G01 X-12.7755 Y17.3419 
G01 X-12.6366 Y17.4428 
G01 X-12.4836 Y17.5207 
G01 X-12.3204 Y17.5737 
G01 X-12.1508 Y17.6006 
G01 X-11.9792 Y17.6006 
G01 X-11.8096 Y17.5737 
G01 X-11.6464 Y17.5207 
G01 X-11.4934 Y17.4428 
G01 X-11.3545 Y17.3419 
G00 Z2.5400 
G00 X-13.8945 Y17.3419 
G01 Z-0.2540 F254.00 
G01 X-13.7731 Y17.2205 F508.00 
G01 X-13.6722 Y17.0816 
G01 X-13.5943 Y16.9286 
G01 X-13.5413 Y16.7654 
G01 X-13.5144 Y16.5958 
G01 X-13.5144 Y16.4242 
G01 X-13.5413 Y16.2546 
G01 X-13.5943 Y16.0914 
G01 X-13.6722 Y15.9384 
G01 X-13.7731 Y15.7995 
G01 X-13.8945 Y15.6781 
G01 X-14.0334 Y15.5772 
G01 X-14.1864 Y15.4993 
G01 X-14.3496 Y15.4463 
G01 X-14.5192 Y15.4194 
G01 X-14.6908 Y15.4194 
G01 X-14.8604 Y15.4463 
G01 X-15.0236 Y15.4993 
G01 X-15.1766 Y15.5772 
G01 X-15.3155 Y15.6781 
G01 X-15.4369 Y15.7995 
G01 X-15.5378 Y15.9384 
G01 X-15.6157 Y16.0914 
G01 X-15.6687 Y16.2546 
G01 X-15.6956 Y16.4242 
G01 X-15.6956 Y16.5958 
G01 X-15.6687 Y16.7654 
G01 X-15.6157 Y16.9286 
G01 X-15.5378 Y17.0816 
G01 X-15.4369 Y17.2205 
G01 X-15.3155 Y17.3419 
G01 X-15.1766 Y17.4428 
G01 X-15.1368 Y17.4630 
G01 X-15.1368 Y19.4647 
G01 X-17.1303 Y21.4582 
G01 X-23.0561 Y21.4582 
G01 X-23.0787 Y21.4243 
G01 X-23.2023 Y21.3007 
G01 X-23.3477 Y21.2036 
G01 X-23.5092 Y21.1367 
G01 X-23.6806 Y21.1026 
G01 X-25.3794 Y21.1026 
G01 X-25.5508 Y21.1367 
G01 X-25.7123 Y21.2036 
G01 X-25.8577 Y21.3007 
G01 X-25.9813 Y21.4243 
G01 X-26.0784 Y21.5697 
G01 X-26.1453 Y21.7312 
G01 X-26.1794 Y21.9026 
G01 X-26.1794 Y22.0774 
G01 X-26.1453 Y22.2488 
G01 X-26.0784 Y22.4103 
G01 X-25.9813 Y22.5557 
G01 X-25.8577 Y22.6793 
G01 X-25.7123 Y22.7764 
G01 X-25.5508 Y22.8433 
G01 X-25.3794 Y22.8774 
G01 X-23.6806 Y22.8774 
G01 X-23.5092 Y22.8433 
G01 X-23.3477 Y22.7764 
G01 X-23.2023 Y22.6793 
G01 X-23.0787 Y22.5557 
G01 X-23.0561 Y22.5218 
G01 X-16.8400 Y22.5218 
G01 X-16.7047 Y22.4856 
G01 X-16.5835 Y22.4155 
G01 X-14.2785 Y20.1105 
G01 X-14.1795 Y20.0115 
G01 X-14.1094 Y19.8903 
G01 X-14.0732 Y19.7550 
G01 X-14.0732 Y17.4630 
G01 X-14.0334 Y17.4428 
G01 X-13.8945 Y17.3419 
G00 Z2.5400 
G00 X-16.4345 Y17.3419 
G01 Z-0.2540 F254.00 
G01 X-16.3131 Y17.2205 F508.00 
G01 X-16.2122 Y17.0816 
G01 X-16.1343 Y16.9286 
G01 X-16.0813 Y16.7654 
G01 X-16.0544 Y16.5958 
G01 X-16.0544 Y16.4242 
G01 X-16.0813 Y16.2546 
G01 X-16.1343 Y16.0914 
G01 X-16.2122 Y15.9384 
G01 X-16.3131 Y15.7995 
G01 X-16.4345 Y15.6781 
G01 X-16.5734 Y15.5772 
G01 X-16.7264 Y15.4993 
G01 X-16.8896 Y15.4463 
G01 X-17.0592 Y15.4194 
G01 X-17.2308 Y15.4194 
G01 X-17.4004 Y15.4463 
G01 X-17.5636 Y15.4993 
G01 X-17.7166 Y15.5772 
G01 X-17.8555 Y15.6781 
G01 X-17.9769 Y15.7995 
G01 X-18.0778 Y15.9384 
G01 X-18.1557 Y16.0914 
G01 X-18.2087 Y16.2546 
G01 X-18.2356 Y16.4242 
G01 X-18.2356 Y16.5958 
G01 X-18.2087 Y16.7654 
G01 X-18.1557 Y16.9286 
G01 X-18.0778 Y17.0816 
G01 X-17.9769 Y17.2205 
G01 X-17.8555 Y17.3419 
G01 X-17.7166 Y17.4428 
G01 X-17.6768 Y17.4630 
G01 X-17.6768 Y17.8772 
G01 X-18.7178 Y18.9182 
G01 X-23.0561 Y18.9182 
G01 X-23.0787 Y18.8843 
G01 X-23.2023 Y18.7607 
G01 X-23.3477 Y18.6636 
G01 X-23.5092 Y18.5967 
G01 X-23.6806 Y18.5626 
G01 X-25.3794 Y18.5626 
G01 X-25.5508 Y18.5967 
G01 X-25.7123 Y18.6636 
G01 X-25.8577 Y18.7607 
G01 X-25.9813 Y18.8843 
G01 X-26.0784 Y19.0297 
G01 X-26.1453 Y19.1912 
G01 X-26.1794 Y19.3626 
G01 X-26.1794 Y19.5374 
G01 X-26.1453 Y19.7088 
G01 X-26.0784 Y19.8703 
G01 X-25.9813 Y20.0157 
G01 X-25.8577 Y20.1393 
G01 X-25.7123 Y20.2364 
G01 X-25.5508 Y20.3033 
G01 X-25.3794 Y20.3374 
G01 X-23.6806 Y20.3374 
G01 X-23.5092 Y20.3033 
G01 X-23.3477 Y20.2364 
G01 X-23.2023 Y20.1393 
G01 X-23.0787 Y20.0157 
G01 X-23.0561 Y19.9818 
G01 X-18.4275 Y19.9818 
G01 X-18.2922 Y19.9456 
G01 X-18.1710 Y19.8755 
G01 X-18.0720 Y19.7765 
G01 X-16.8185 Y18.5230 
G01 X-16.7195 Y18.4240 
G01 X-16.6494 Y18.3028 
G01 X-16.6132 Y18.1675 
G01 X-16.6132 Y17.4630 
G01 X-16.5734 Y17.4428 
G01 X-16.4345 Y17.3419 
G00 Z2.5400 
G00 X-22.9816 Y17.3303 
G01 Z-0.2540 F254.00 
G01 X-22.9147 Y17.1688 F508.00 
G01 X-22.8806 Y16.9974 
G01 X-22.8806 Y16.8226 
G01 X-22.9147 Y16.6512 
G01 X-22.9816 Y16.4897 
G01 X-23.0787 Y16.3443 
G01 X-23.2023 Y16.2207 
G01 X-23.3477 Y16.1236 
G01 X-23.5092 Y16.0567 
G01 X-23.6806 Y16.0226 
G01 X-25.3794 Y16.0226 
G01 X-25.5508 Y16.0567 
G01 X-25.7123 Y16.1236 
G01 X-25.8577 Y16.2207 
G01 X-25.9813 Y16.3443 
G01 X-26.0784 Y16.4897 
G01 X-26.1453 Y16.6512 
G01 X-26.1794 Y16.8226 
G01 X-26.1794 Y16.9974 
G01 X-26.1453 Y17.1688 
G01 X-26.0784 Y17.3303 
G01 X-25.9813 Y17.4757 
G01 X-25.8577 Y17.5993 
G01 X-25.7123 Y17.6964 
G01 X-25.5508 Y17.7633 
G01 X-25.3794 Y17.7974 
G01 X-23.6806 Y17.7974 
G01 X-23.5092 Y17.7633 
G01 X-23.3477 Y17.6964 
G01 X-23.2023 Y17.5993 
G01 X-23.0787 Y17.4757 
G01 X-22.9816 Y17.3303 
G00 Z2.5400 
G00 X-23.2023 Y15.0593 
G01 Z-0.2540 F254.00 
G01 X-23.0787 Y14.9357 F508.00 
G01 X-22.9816 Y14.7903 
G01 X-22.9147 Y14.6288 
G01 X-22.8806 Y14.4574 
G01 X-22.8806 Y14.2826 
G01 X-22.9147 Y14.1112 
G01 X-22.9816 Y13.9497 
G01 X-23.0787 Y13.8043 
G01 X-23.2023 Y13.6807 
G01 X-23.3477 Y13.5836 
G01 X-23.5092 Y13.5167 
G01 X-23.6806 Y13.4826 
G01 X-25.3794 Y13.4826 
G01 X-25.5508 Y13.5167 
G01 X-25.7123 Y13.5836 
G01 X-25.8577 Y13.6807 
G01 X-25.9813 Y13.8043 
G01 X-26.0784 Y13.9497 
G01 X-26.1453 Y14.1112 
G01 X-26.1794 Y14.2826 
G01 X-26.1794 Y14.4574 
G01 X-26.1453 Y14.6288 
G01 X-26.0784 Y14.7903 
G01 X-25.9813 Y14.9357 
G01 X-25.8577 Y15.0593 
G01 X-25.7123 Y15.1564 
G01 X-25.5508 Y15.2233 
G01 X-25.3794 Y15.2574 
G01 X-23.6806 Y15.2574 
G01 X-23.5092 Y15.2233 
G01 X-23.3477 Y15.1564 
G01 X-23.2023 Y15.0593 
G00 Z2.5400 
G00 X-23.2023 Y9.9793 
G01 Z-0.2540 F254.00 
G01 X-23.0787 Y9.8557 F508.00 
G01 X-22.9816 Y9.7103 
G01 X-22.9147 Y9.5488 
G01 X-22.8806 Y9.3774 
G01 X-22.8806 Y9.2026 
G01 X-22.9147 Y9.0312 
G01 X-22.9816 Y8.8697 
G01 X-23.0787 Y8.7243 
G01 X-23.2023 Y8.6007 
G01 X-23.3477 Y8.5036 
G01 X-23.5092 Y8.4367 
G01 X-23.6806 Y8.4026 
G01 X-25.3794 Y8.4026 
G01 X-25.5508 Y8.4367 
G01 X-25.7123 Y8.5036 
G01 X-25.8577 Y8.6007 
G01 X-25.9813 Y8.7243 
G01 X-26.0784 Y8.8697 
G01 X-26.1453 Y9.0312 
G01 X-26.1794 Y9.2026 
G01 X-26.1794 Y9.3774 
G01 X-26.1453 Y9.5488 
G01 X-26.0784 Y9.7103 
G01 X-25.9813 Y9.8557 
G01 X-25.8577 Y9.9793 
G01 X-25.7123 Y10.0764 
G01 X-25.5508 Y10.1433 
G01 X-25.3794 Y10.1774 
G01 X-23.6806 Y10.1774 
G01 X-23.5092 Y10.1433 
G01 X-23.3477 Y10.0764 
G01 X-23.2023 Y9.9793 
G00 Z2.5400 
G00 X-23.2023 Y23.8407 
G01 Z-0.2540 F254.00 
G01 X-23.3477 Y23.7436 F508.00 
G01 X-23.5092 Y23.6767 
G01 X-23.6806 Y23.6426 
G01 X-25.3794 Y23.6426 
G01 X-25.5508 Y23.6767 
G01 X-25.7123 Y23.7436 
G01 X-25.8577 Y23.8407 
G01 X-25.9813 Y23.9643 
G01 X-26.0784 Y24.1097 
G01 X-26.1453 Y24.2712 
G01 X-26.1794 Y24.4426 
G01 X-26.1794 Y24.6174 
G01 X-26.1453 Y24.7888 
G01 X-26.0784 Y24.9503 
G01 X-25.9813 Y25.0957 
G01 X-25.8577 Y25.2193 
G01 X-25.7123 Y25.3164 
G01 X-25.5508 Y25.3833 
G01 X-25.3794 Y25.4174 
G01 X-23.6806 Y25.4174 
G01 X-23.5092 Y25.3833 
G01 X-23.3477 Y25.3164 
G01 X-23.2023 Y25.2193 
G01 X-23.0787 Y25.0957 
G01 X-22.9816 Y24.9503 
G01 X-22.9147 Y24.7888 
G01 X-22.8806 Y24.6174 
G01 X-22.8806 Y24.4426 
G01 X-22.9147 Y24.2712 
G01 X-22.9816 Y24.1097 
G01 X-23.0787 Y23.9643 
G01 X-23.2023 Y23.8407 
G00 Z2.5400 
G00 X-23.2023 Y26.3807 
G01 Z-0.2540 F254.00 
G01 X-23.3477 Y26.2836 F508.00 
G01 X-23.5092 Y26.2167 
G01 X-23.6806 Y26.1826 
G01 X-25.3794 Y26.1826 
G01 X-25.5508 Y26.2167 
G01 X-25.7123 Y26.2836 
G01 X-25.8577 Y26.3807 
G01 X-25.9813 Y26.5043 
G01 X-26.0784 Y26.6497 
G01 X-26.1453 Y26.8112 
G01 X-26.1794 Y26.9826 
G01 X-26.1794 Y27.1574 
G01 X-26.1453 Y27.3288 
G01 X-26.0784 Y27.4903 
G01 X-25.9813 Y27.6357 
G01 X-25.8577 Y27.7593 
G01 X-25.7123 Y27.8564 
G01 X-25.5508 Y27.9233 
G01 X-25.3794 Y27.9574 
G01 X-23.6806 Y27.9574 
G01 X-23.5092 Y27.9233 
G01 X-23.3477 Y27.8564 
G01 X-23.2023 Y27.7593 
G01 X-23.0787 Y27.6357 
G01 X-22.9816 Y27.4903 
G01 X-22.9147 Y27.3288 
G01 X-22.8806 Y27.1574 
G01 X-22.8806 Y26.9826 
G01 X-22.9147 Y26.8112 
G01 X-22.9816 Y26.6497 
G01 X-23.0787 Y26.5043 
G01 X-23.2023 Y26.3807 
G00 Z2.5400 
G00 X-0.1201 Y8.6434 
G01 Z-0.2540 F254.00 
G01 X-0.2614 Y8.5021 F508.00 
G01 X-0.4275 Y8.3910 
G01 X-0.6121 Y8.3146 
G01 X-0.8081 Y8.2756 
G01 X-2.5319 Y8.2756 
G01 X-2.7279 Y8.3146 
G01 X-2.9125 Y8.3910 
G01 X-3.0786 Y8.5021 
G01 X-3.2078 Y8.6312 
G01 X-7.1121 Y8.6312 
G01 X-9.9050 Y5.8383 
G01 X-10.0129 Y5.7662 
G01 X-10.0516 Y5.7502 
G01 X-10.0711 Y5.7118 
G01 X-10.1838 Y5.5568 
G01 X-10.3193 Y5.4213 
G01 X-10.4743 Y5.3086 
G01 X-10.6451 Y5.2216 
G01 X-10.8274 Y5.1624 
G01 X-11.0167 Y5.1324 
G01 X-11.2083 Y5.1324 
G01 X-11.3976 Y5.1624 
G01 X-11.5799 Y5.2216 
G01 X-11.7507 Y5.3086 
G01 X-11.9057 Y5.4213 
G01 X-12.0412 Y5.5568 
G01 X-12.1539 Y5.7118 
G01 X-12.2409 Y5.8826 
G01 X-12.3001 Y6.0649 
G01 X-12.3301 Y6.2542 
G01 X-12.3301 Y6.4458 
G01 X-12.3001 Y6.6351 
G01 X-12.2409 Y6.8174 
G01 X-12.1539 Y6.9882 
G01 X-12.0412 Y7.1432 
G01 X-11.9057 Y7.2787 
G01 X-11.7507 Y7.3914 
G01 X-11.5799 Y7.4784 
G01 X-11.3976 Y7.5376 
G01 X-11.2083 Y7.5676 
G01 X-11.0167 Y7.5676 
G01 X-10.8274 Y7.5376 
G01 X-10.6451 Y7.4784 
G01 X-10.4743 Y7.3914 
G01 X-10.3243 Y7.2824 
G01 X-8.3167 Y9.2900 
G01 X-9.9450 Y10.9183 
G01 X-10.0367 Y11.0100 
G01 X-10.1088 Y11.1179 
G01 X-10.1585 Y11.2378 
G01 X-10.1838 Y11.3651 
G01 X-10.1838 Y15.4836 
G01 X-10.3182 Y15.5813 
G01 X-10.4537 Y15.7168 
G01 X-10.5664 Y15.8718 
G01 X-10.6534 Y16.0426 
G01 X-10.7126 Y16.2249 
G01 X-10.7426 Y16.4142 
G01 X-10.7426 Y16.6058 
G01 X-10.7126 Y16.7951 
G01 X-10.6534 Y16.9774 
G01 X-10.5664 Y17.1482 
G01 X-10.4537 Y17.3032 
G01 X-10.3182 Y17.4387 
G01 X-10.1632 Y17.5514 
G01 X-9.9924 Y17.6384 
G01 X-9.8101 Y17.6976 
G01 X-9.6208 Y17.7276 
G01 X-9.4292 Y17.7276 
G01 X-9.2399 Y17.6976 
G01 X-9.0576 Y17.6384 
G01 X-8.8868 Y17.5514 
G01 X-8.7318 Y17.4387 
G01 X-8.5963 Y17.3032 
G01 X-8.4836 Y17.1482 
G01 X-8.3966 Y16.9774 
G01 X-8.3374 Y16.7951 
G01 X-8.3074 Y16.6058 
G01 X-8.3074 Y16.4142 
G01 X-8.3374 Y16.2249 
G01 X-8.3966 Y16.0426 
G01 X-8.4836 Y15.8718 
G01 X-8.5963 Y15.7168 
G01 X-8.7318 Y15.5813 
G01 X-8.8662 Y15.4836 
G01 X-8.8662 Y11.7029 
G01 X-7.1121 Y9.9488 
G01 X-3.2078 Y9.9488 
G01 X-3.0786 Y10.0779 
G01 X-2.9125 Y10.1889 
G01 X-2.7279 Y10.2654 
G01 X-2.5319 Y10.3044 
G01 X-0.8081 Y10.3044 
G01 X-0.6121 Y10.2654 
G01 X-0.4275 Y10.1889 
G01 X-0.2614 Y10.0779 
G01 X-0.1201 Y9.9366 
G01 X-0.0091 Y9.7705 
G01 X0.0674 Y9.5859 
G01 X0.1064 Y9.3899 
G01 X0.1064 Y9.1901 
G01 X0.0674 Y8.9941 
G01 X-0.0091 Y8.8095 
G01 X-0.1201 Y8.6434 
G00 Z2.5400 
G00 X-0.1201 Y11.1834 
G01 Z-0.2540 F254.00 
G01 X-0.2614 Y11.0421 F508.00 
G01 X-0.4275 Y10.9311 
G01 X-0.6121 Y10.8546 
G01 X-0.8081 Y10.8156 
G01 X-2.5319 Y10.8156 
G01 X-2.7279 Y10.8546 
G01 X-2.9125 Y10.9311 
G01 X-3.0786 Y11.0421 
G01 X-3.2199 Y11.1834 
G01 X-3.3309 Y11.3495 
G01 X-3.4074 Y11.5341 
G01 X-3.4464 Y11.7301 
G01 X-3.4464 Y11.9299 
G01 X-3.4074 Y12.1259 
G01 X-3.3309 Y12.3105 
G01 X-3.2199 Y12.4766 
G01 X-3.0786 Y12.6179 
G01 X-2.9125 Y12.7289 
G01 X-2.7279 Y12.8054 
G01 X-2.5319 Y12.8444 
G01 X-0.8081 Y12.8444 
G01 X-0.6121 Y12.8054 
G01 X-0.4275 Y12.7289 
G01 X-0.2614 Y12.6179 
G01 X-0.1201 Y12.4766 
G01 X-0.0091 Y12.3105 
G01 X0.0674 Y12.1259 
G01 X0.1064 Y11.9299 
G01 X0.1064 Y11.7301 
G01 X0.0674 Y11.5341 
G01 X-0.0091 Y11.3495 
G01 X-0.1201 Y11.1834 
G00 Z2.5400 
G00 X-0.1201 Y13.7234 
G01 Z-0.2540 F254.00 
G01 X-0.2614 Y13.5821 F508.00 
G01 X-0.4275 Y13.4710 
G01 X-0.6121 Y13.3946 
G01 X-0.8081 Y13.3556 
G01 X-2.5319 Y13.3556 
G01 X-2.7279 Y13.3946 
G01 X-2.9125 Y13.4710 
G01 X-3.0786 Y13.5821 
G01 X-3.2199 Y13.7234 
G01 X-3.3309 Y13.8895 
G01 X-3.4074 Y14.0741 
G01 X-3.4464 Y14.2701 
G01 X-3.4464 Y14.4699 
G01 X-3.4074 Y14.6659 
G01 X-3.3309 Y14.8505 
G01 X-3.2199 Y15.0166 
G01 X-3.0786 Y15.1579 
G01 X-2.9125 Y15.2689 
G01 X-2.7279 Y15.3454 
G01 X-2.5319 Y15.3844 
G01 X-0.8081 Y15.3844 
G01 X-0.6121 Y15.3454 
G01 X-0.4275 Y15.2689 
G01 X-0.2614 Y15.1579 
G01 X-0.1201 Y15.0166 
G01 X-0.0091 Y14.8505 
G01 X0.0674 Y14.6659 
G01 X0.1064 Y14.4699 
G01 X0.1064 Y14.2701 
G01 X0.0674 Y14.0741 
G01 X-0.0091 Y13.8895 
G01 X-0.1201 Y13.7234 
G00 Z2.5400 
G00 X-0.1201 Y16.2634 
G01 Z-0.2540 F254.00 
G01 X-0.2614 Y16.1221 F508.00 
G01 X-0.4275 Y16.0111 
G01 X-0.6121 Y15.9346 
G01 X-0.8081 Y15.8956 
G01 X-2.5319 Y15.8956 
G01 X-2.7279 Y15.9346 
G01 X-2.9125 Y16.0111 
G01 X-3.0786 Y16.1221 
G01 X-3.2199 Y16.2634 
G01 X-3.3309 Y16.4295 
G01 X-3.4074 Y16.6141 
G01 X-3.4464 Y16.8101 
G01 X-3.4464 Y17.0099 
G01 X-3.4074 Y17.2059 
G01 X-3.3309 Y17.3905 
G01 X-3.2199 Y17.5566 
G01 X-3.0786 Y17.6979 
G01 X-2.9125 Y17.8089 
G01 X-2.7279 Y17.8854 
G01 X-2.5319 Y17.9244 
G01 X-0.8081 Y17.9244 
G01 X-0.6121 Y17.8854 
G01 X-0.4275 Y17.8089 
G01 X-0.2614 Y17.6979 
G01 X-0.1201 Y17.5566 
G01 X-0.0091 Y17.3905 
G01 X0.0674 Y17.2059 
G01 X0.1064 Y17.0099 
G01 X0.1064 Y16.8101 
G01 X0.0674 Y16.6141 
G01 X-0.0091 Y16.4295 
G01 X-0.1201 Y16.2634 
G00 Z2.5400 
G00 X-0.1201 Y18.8034 
G01 Z-0.2540 F254.00 
G01 X-0.2614 Y18.6621 F508.00 
G01 X-0.4275 Y18.5511 
G01 X-0.6121 Y18.4746 
G01 X-0.8081 Y18.4356 
G01 X-2.5319 Y18.4356 
G01 X-2.7279 Y18.4746 
G01 X-2.9125 Y18.5511 
G01 X-3.0786 Y18.6621 
G01 X-3.2199 Y18.8034 
G01 X-3.3309 Y18.9695 
G01 X-3.4074 Y19.1541 
G01 X-3.4464 Y19.3501 
G01 X-3.4464 Y19.5499 
G01 X-3.4074 Y19.7459 
G01 X-3.3309 Y19.9305 
G01 X-3.2199 Y20.0966 
G01 X-3.0786 Y20.2379 
G01 X-2.9125 Y20.3489 
G01 X-2.7279 Y20.4254 
G01 X-2.5319 Y20.4644 
G01 X-0.8081 Y20.4644 
G01 X-0.6121 Y20.4254 
G01 X-0.4275 Y20.3489 
G01 X-0.2614 Y20.2379 
G01 X-0.1201 Y20.0966 
G01 X-0.0091 Y19.9305 
G01 X0.0674 Y19.7459 
G01 X0.1064 Y19.5499 
G01 X0.1064 Y19.3501 
G01 X0.0674 Y19.1541 
G01 X-0.0091 Y18.9695 
G01 X-0.1201 Y18.8034 
G00 Z2.5400 
G00 X-0.1201 Y21.3434 
G01 Z-0.2540 F254.00 
G01 X-0.2614 Y21.2021 F508.00 
G01 X-0.4275 Y21.0910 
G01 X-0.6121 Y21.0146 
G01 X-0.8081 Y20.9756 
G01 X-2.5319 Y20.9756 
G01 X-2.7279 Y21.0146 
G01 X-2.9125 Y21.0910 
G01 X-3.0786 Y21.2021 
G01 X-3.2199 Y21.3434 
G01 X-3.3309 Y21.5095 
G01 X-3.4074 Y21.6941 
G01 X-3.4464 Y21.8901 
G01 X-3.4464 Y22.0899 
G01 X-3.4074 Y22.2859 
G01 X-3.3309 Y22.4705 
G01 X-3.2199 Y22.6366 
G01 X-3.0786 Y22.7779 
G01 X-2.9125 Y22.8889 
G01 X-2.7279 Y22.9654 
G01 X-2.5319 Y23.0044 
G01 X-0.8081 Y23.0044 
G01 X-0.6121 Y22.9654 
G01 X-0.4275 Y22.8889 
G01 X-0.2614 Y22.7779 
G01 X-0.1201 Y22.6366 
G01 X-0.0091 Y22.4705 
G01 X0.0674 Y22.2859 
G01 X0.1064 Y22.0899 
G01 X0.1064 Y21.8901 
G01 X0.0674 Y21.6941 
G01 X-0.0091 Y21.5095 
G01 X-0.1201 Y21.3434 
G00 Z2.5400 
G00 X-0.1201 Y23.8834 
G01 Z-0.2540 F254.00 
G01 X-0.2614 Y23.7421 F508.00 
G01 X-0.4275 Y23.6310 
G01 X-0.6121 Y23.5546 
G01 X-0.8081 Y23.5156 
G01 X-2.5319 Y23.5156 
G01 X-2.7279 Y23.5546 
G01 X-2.9125 Y23.6310 
G01 X-3.0786 Y23.7421 
G01 X-3.2199 Y23.8834 
G01 X-3.3309 Y24.0495 
G01 X-3.4074 Y24.2341 
G01 X-3.4464 Y24.4301 
G01 X-3.4464 Y24.6299 
G01 X-3.4074 Y24.8259 
G01 X-3.3309 Y25.0105 
G01 X-3.2199 Y25.1766 
G01 X-3.0786 Y25.3179 
G01 X-2.9125 Y25.4289 
G01 X-2.7279 Y25.5054 
G01 X-2.5319 Y25.5444 
G01 X-0.8081 Y25.5444 
G01 X-0.6121 Y25.5054 
G01 X-0.4275 Y25.4289 
G01 X-0.2614 Y25.3179 
G01 X-0.1201 Y25.1766 
G01 X-0.0091 Y25.0105 
G01 X0.0674 Y24.8259 
G01 X0.1064 Y24.6299 
G01 X0.1064 Y24.4301 
G01 X0.0674 Y24.2341 
G01 X-0.0091 Y24.0495 
G01 X-0.1201 Y23.8834 
G00 Z2.5400 
G00 X-0.1201 Y26.4234 
G01 Z-0.2540 F254.00 
G01 X-0.2614 Y26.2821 F508.00 
G01 X-0.4275 Y26.1711 
G01 X-0.6121 Y26.0946 
G01 X-0.8081 Y26.0556 
G01 X-2.5319 Y26.0556 
G01 X-2.7279 Y26.0946 
G01 X-2.9125 Y26.1711 
G01 X-3.0786 Y26.2821 
G01 X-3.2199 Y26.4234 
G01 X-3.3309 Y26.5895 
G01 X-3.4074 Y26.7741 
G01 X-3.4464 Y26.9701 
G01 X-3.4464 Y27.1699 
G01 X-3.4074 Y27.3659 
G01 X-3.3309 Y27.5505 
G01 X-3.2199 Y27.7166 
G01 X-3.0786 Y27.8579 
G01 X-2.9125 Y27.9689 
G01 X-2.7279 Y28.0454 
G01 X-2.5319 Y28.0844 
G01 X-0.8081 Y28.0844 
G01 X-0.6121 Y28.0454 
G01 X-0.4275 Y27.9689 
G01 X-0.2614 Y27.8579 
G01 X-0.1201 Y27.7166 
G01 X-0.0091 Y27.5505 
G01 X0.0674 Y27.3659 
G01 X0.1064 Y27.1699 
G01 X0.1064 Y26.9701 
G01 X0.0674 Y26.7741 
G01 X-0.0091 Y26.5895 
G01 X-0.1201 Y26.4234 
G00 Z2.5400 
G00 X-11.2718 Y17.4387 
G01 Z-0.2540 F254.00 
G01 X-11.1363 Y17.3032 F508.00 
G01 X-11.0236 Y17.1482 
G01 X-10.9366 Y16.9774 
G01 X-10.8774 Y16.7951 
G01 X-10.8474 Y16.6058 
G01 X-10.8474 Y16.4142 
G01 X-10.8774 Y16.2249 
G01 X-10.9366 Y16.0426 
G01 X-11.0236 Y15.8718 
G01 X-11.1363 Y15.7168 
G01 X-11.2718 Y15.5813 
G01 X-11.4062 Y15.4836 
G01 X-11.4062 Y13.9051 
G01 X-11.4315 Y13.7778 
G01 X-11.4812 Y13.6579 
G01 X-11.5533 Y13.5500 
G01 X-11.6450 Y13.4583 
G01 X-13.7850 Y11.3183 
G01 X-13.8929 Y11.2462 
G01 X-14.0128 Y11.1965 
G01 X-14.1401 Y11.1712 
G01 X-15.8512 Y11.1712 
G01 X-15.8512 Y7.5194 
G01 X-15.7251 Y7.4784 
G01 X-15.5543 Y7.3914 
G01 X-15.3993 Y7.2787 
G01 X-15.2638 Y7.1432 
G01 X-15.1511 Y6.9882 
G01 X-15.0641 Y6.8174 
G01 X-15.0049 Y6.6351 
G01 X-14.9749 Y6.4458 
G01 X-14.9749 Y6.2542 
G01 X-15.0049 Y6.0649 
G01 X-15.0641 Y5.8826 
G01 X-15.1511 Y5.7118 
G01 X-15.2638 Y5.5568 
G01 X-15.3993 Y5.4213 
G01 X-15.5543 Y5.3086 
G01 X-15.7251 Y5.2216 
G01 X-15.9074 Y5.1624 
G01 X-16.0967 Y5.1324 
G01 X-16.2883 Y5.1324 
G01 X-16.4776 Y5.1624 
G01 X-16.6599 Y5.2216 
G01 X-16.8307 Y5.3086 
G01 X-16.9857 Y5.4213 
G01 X-17.1212 Y5.5568 
G01 X-17.2339 Y5.7118 
G01 X-17.3209 Y5.8826 
G01 X-17.3801 Y6.0649 
G01 X-17.4101 Y6.2542 
G01 X-17.4101 Y6.4458 
G01 X-17.3801 Y6.6351 
G01 X-17.3209 Y6.8174 
G01 X-17.2339 Y6.9882 
G01 X-17.1688 Y7.0777 
G01 X-17.1688 Y11.1712 
G01 X-22.9922 Y11.1712 
G01 X-23.1214 Y11.0421 
G01 X-23.2875 Y10.9311 
G01 X-23.4721 Y10.8546 
G01 X-23.6681 Y10.8156 
G01 X-25.3919 Y10.8156 
G01 X-25.5879 Y10.8546 
G01 X-25.7725 Y10.9311 
G01 X-25.9386 Y11.0421 
G01 X-26.0799 Y11.1834 
G01 X-26.1909 Y11.3495 
G01 X-26.2674 Y11.5341 
G01 X-26.3064 Y11.7301 
G01 X-26.3064 Y11.9299 
G01 X-26.2674 Y12.1259 
G01 X-26.1909 Y12.3105 
G01 X-26.0799 Y12.4766 
G01 X-25.9386 Y12.6179 
G01 X-25.7725 Y12.7289 
G01 X-25.5879 Y12.8054 
G01 X-25.3919 Y12.8444 
G01 X-23.6681 Y12.8444 
G01 X-23.4721 Y12.8054 
G01 X-23.2875 Y12.7289 
G01 X-23.1214 Y12.6179 
G01 X-22.9922 Y12.4888 
G01 X-14.4779 Y12.4888 
G01 X-12.7238 Y14.2429 
G01 X-12.7238 Y15.4836 
G01 X-12.8582 Y15.5813 
G01 X-12.9937 Y15.7168 
G01 X-13.1064 Y15.8718 
G01 X-13.1934 Y16.0426 
G01 X-13.2526 Y16.2249 
G01 X-13.2826 Y16.4142 
G01 X-13.2826 Y16.6058 
G01 X-13.2526 Y16.7951 
G01 X-13.1934 Y16.9774 
G01 X-13.1064 Y17.1482 
G01 X-12.9937 Y17.3032 
G01 X-12.8582 Y17.4387 
G01 X-12.7032 Y17.5514 
G01 X-12.5324 Y17.6384 
G01 X-12.3501 Y17.6976 
G01 X-12.1608 Y17.7276 
G01 X-11.9692 Y17.7276 
G01 X-11.7799 Y17.6976 
G01 X-11.5976 Y17.6384 
G01 X-11.4268 Y17.5514 
G01 X-11.2718 Y17.4387 
G00 Z2.5400 
G00 X-13.8118 Y17.4387 
G01 Z-0.2540 F254.00 
G01 X-13.6763 Y17.3032 F508.00 
G01 X-13.5636 Y17.1482 
G01 X-13.4766 Y16.9774 
G01 X-13.4174 Y16.7951 
G01 X-13.3874 Y16.6058 
G01 X-13.3874 Y16.4142 
G01 X-13.4174 Y16.2249 
G01 X-13.4766 Y16.0426 
G01 X-13.5636 Y15.8718 
G01 X-13.6763 Y15.7168 
G01 X-13.8118 Y15.5813 
G01 X-13.9668 Y15.4686 
G01 X-14.1376 Y15.3816 
G01 X-14.3199 Y15.3224 
G01 X-14.5092 Y15.2924 
G01 X-14.7008 Y15.2924 
G01 X-14.8901 Y15.3224 
G01 X-15.0724 Y15.3816 
G01 X-15.2432 Y15.4686 
G01 X-15.3982 Y15.5813 
G01 X-15.5337 Y15.7168 
G01 X-15.6464 Y15.8718 
G01 X-15.7334 Y16.0426 
G01 X-15.7926 Y16.2249 
G01 X-15.8226 Y16.4142 
G01 X-15.8226 Y16.6058 
G01 X-15.7926 Y16.7951 
G01 X-15.7334 Y16.9774 
G01 X-15.6464 Y17.1482 
G01 X-15.5337 Y17.3032 
G01 X-15.3982 Y17.4387 
G01 X-15.2638 Y17.5364 
G01 X-15.2638 Y19.4121 
G01 X-17.1829 Y21.3312 
G01 X-22.9922 Y21.3312 
G01 X-23.1214 Y21.2021 
G01 X-23.2875 Y21.0910 
G01 X-23.4721 Y21.0146 
G01 X-23.6681 Y20.9756 
G01 X-25.3919 Y20.9756 
G01 X-25.5879 Y21.0146 
G01 X-25.7725 Y21.0910 
G01 X-25.9386 Y21.2021 
G01 X-26.0799 Y21.3434 
G01 X-26.1909 Y21.5095 
G01 X-26.2674 Y21.6941 
G01 X-26.3064 Y21.8901 
G01 X-26.3064 Y22.0899 
G01 X-26.2674 Y22.2859 
G01 X-26.1909 Y22.4705 
G01 X-26.0799 Y22.6366 
G01 X-25.9386 Y22.7779 
G01 X-25.7725 Y22.8889 
G01 X-25.5879 Y22.9654 
G01 X-25.3919 Y23.0044 
G01 X-23.6681 Y23.0044 
G01 X-23.4721 Y22.9654 
G01 X-23.2875 Y22.8889 
G01 X-23.1214 Y22.7779 
G01 X-22.9922 Y22.6488 
G01 X-16.8451 Y22.6488 
G01 X-16.7178 Y22.6235 
G01 X-16.5979 Y22.5738 
G01 X-16.4900 Y22.5017 
G01 X-14.1850 Y20.1967 
G01 X-14.0933 Y20.1050 
G01 X-14.0212 Y19.9971 
G01 X-13.9715 Y19.8772 
G01 X-13.9462 Y19.7499 
G01 X-13.9462 Y17.5364 
G01 X-13.8118 Y17.4387 
G00 Z2.5400 
G00 X-16.3518 Y17.4387 
G01 Z-0.2540 F254.00 
G01 X-16.2163 Y17.3032 F508.00 
G01 X-16.1036 Y17.1482 
G01 X-16.0166 Y16.9774 
G01 X-15.9574 Y16.7951 
G01 X-15.9274 Y16.6058 
G01 X-15.9274 Y16.4142 
G01 X-15.9574 Y16.2249 
G01 X-16.0166 Y16.0426 
G01 X-16.1036 Y15.8718 
G01 X-16.2163 Y15.7168 
G01 X-16.3518 Y15.5813 
G01 X-16.5068 Y15.4686 
G01 X-16.6776 Y15.3816 
G01 X-16.8599 Y15.3224 
G01 X-17.0492 Y15.2924 
G01 X-17.2408 Y15.2924 
G01 X-17.4301 Y15.3224 
G01 X-17.6124 Y15.3816 
G01 X-17.7832 Y15.4686 
G01 X-17.9382 Y15.5813 
G01 X-18.0737 Y15.7168 
G01 X-18.1864 Y15.8718 
G01 X-18.2734 Y16.0426 
G01 X-18.3326 Y16.2249 
G01 X-18.3626 Y16.4142 
G01 X-18.3626 Y16.6058 
G01 X-18.3326 Y16.7951 
G01 X-18.2734 Y16.9774 
G01 X-18.1864 Y17.1482 
G01 X-18.0737 Y17.3032 
G01 X-17.9382 Y17.4387 
G01 X-17.8038 Y17.5364 
G01 X-17.8038 Y17.8246 
G01 X-18.7704 Y18.7912 
G01 X-22.9922 Y18.7912 
G01 X-23.1214 Y18.6621 
G01 X-23.2875 Y18.5511 
G01 X-23.4721 Y18.4746 
G01 X-23.6681 Y18.4356 
G01 X-25.3919 Y18.4356 
G01 X-25.5879 Y18.4746 
G01 X-25.7725 Y18.5511 
G01 X-25.9386 Y18.6621 
G01 X-26.0799 Y18.8034 
G01 X-26.1909 Y18.9695 
G01 X-26.2674 Y19.1541 
G01 X-26.3064 Y19.3501 
G01 X-26.3064 Y19.5499 
G01 X-26.2674 Y19.7459 
G01 X-26.1909 Y19.9305 
G01 X-26.0799 Y20.0966 
G01 X-25.9386 Y20.2379 
G01 X-25.7725 Y20.3489 
G01 X-25.5879 Y20.4254 
G01 X-25.3919 Y20.4644 
G01 X-23.6681 Y20.4644 
G01 X-23.4721 Y20.4254 
G01 X-23.2875 Y20.3489 
G01 X-23.1214 Y20.2379 
G01 X-22.9922 Y20.1088 
G01 X-18.4326 Y20.1088 
G01 X-18.3053 Y20.0835 
G01 X-18.1854 Y20.0338 
G01 X-18.0775 Y19.9617 
G01 X-17.9858 Y19.8700 
G01 X-16.7250 Y18.6092 
G01 X-16.6333 Y18.5175 
G01 X-16.5612 Y18.4096 
G01 X-16.5115 Y18.2897 
G01 X-16.4862 Y18.1624 
G01 X-16.4862 Y17.5364 
G01 X-16.3518 Y17.4387 
G00 Z2.5400 
G00 X-22.8691 Y17.3905 
G01 Z-0.2540 F254.00 
G01 X-22.7926 Y17.2059 F508.00 
G01 X-22.7536 Y17.0099 
G01 X-22.7536 Y16.8101 
G01 X-22.7926 Y16.6141 
G01 X-22.8691 Y16.4295 
G01 X-22.9801 Y16.2634 
G01 X-23.1214 Y16.1221 
G01 X-23.2875 Y16.0111 
G01 X-23.4721 Y15.9346 
G01 X-23.6681 Y15.8956 
G01 X-25.3919 Y15.8956 
G01 X-25.5879 Y15.9346 
G01 X-25.7725 Y16.0111 
G01 X-25.9386 Y16.1221 
G01 X-26.0799 Y16.2634 
G01 X-26.1909 Y16.4295 
G01 X-26.2674 Y16.6141 
G01 X-26.3064 Y16.8101 
G01 X-26.3064 Y17.0099 
G01 X-26.2674 Y17.2059 
G01 X-26.1909 Y17.3905 
G01 X-26.0799 Y17.5566 
G01 X-25.9386 Y17.6979 
G01 X-25.7725 Y17.8089 
G01 X-25.5879 Y17.8854 
G01 X-25.3919 Y17.9244 
G01 X-23.6681 Y17.9244 
G01 X-23.4721 Y17.8854 
G01 X-23.2875 Y17.8089 
G01 X-23.1214 Y17.6979 
G01 X-22.9801 Y17.5566 
G01 X-22.8691 Y17.3905 
G00 Z2.5400 
G00 X-23.1214 Y15.1579 
G01 Z-0.2540 F254.00 
G01 X-22.9801 Y15.0166 F508.00 
G01 X-22.8691 Y14.8505 
G01 X-22.7926 Y14.6659 
G01 X-22.7536 Y14.4699 
G01 X-22.7536 Y14.2701 
G01 X-22.7926 Y14.0741 
G01 X-22.8691 Y13.8895 
G01 X-22.9801 Y13.7234 
G01 X-23.1214 Y13.5821 
G01 X-23.2875 Y13.4710 
G01 X-23.4721 Y13.3946 
G01 X-23.6681 Y13.3556 
G01 X-25.3919 Y13.3556 
G01 X-25.5879 Y13.3946 
G01 X-25.7725 Y13.4710 
G01 X-25.9386 Y13.5821 
G01 X-26.0799 Y13.7234 
G01 X-26.1909 Y13.8895 
G01 X-26.2674 Y14.0741 
G01 X-26.3064 Y14.2701 
G01 X-26.3064 Y14.4699 
G01 X-26.2674 Y14.6659 
G01 X-26.1909 Y14.8505 
G01 X-26.0799 Y15.0166 
G01 X-25.9386 Y15.1579 
G01 X-25.7725 Y15.2689 
G01 X-25.5879 Y15.3454 
G01 X-25.3919 Y15.3844 
G01 X-23.6681 Y15.3844 
G01 X-23.4721 Y15.3454 
G01 X-23.2875 Y15.2689 
G01 X-23.1214 Y15.1579 
G00 Z2.5400 
G00 X-23.1214 Y10.0779 
G01 Z-0.2540 F254.00 
G01 X-22.9801 Y9.9366 F508.00 
G01 X-22.8691 Y9.7705 
G01 X-22.7926 Y9.5859 
G01 X-22.7536 Y9.3899 
G01 X-22.7536 Y9.1901 
G01 X-22.7926 Y8.9941 
G01 X-22.8691 Y8.8095 
G01 X-22.9801 Y8.6434 
G01 X-23.1214 Y8.5021 
G01 X-23.2875 Y8.3910 
G01 X-23.4721 Y8.3146 
G01 X-23.6681 Y8.2756 
G01 X-25.3919 Y8.2756 
G01 X-25.5879 Y8.3146 
G01 X-25.7725 Y8.3910 
G01 X-25.9386 Y8.5021 
G01 X-26.0799 Y8.6434 
G01 X-26.1909 Y8.8095 
G01 X-26.2674 Y8.9941 
G01 X-26.3064 Y9.1901 
G01 X-26.3064 Y9.3899 
G01 X-26.2674 Y9.5859 
G01 X-26.1909 Y9.7705 
G01 X-26.0799 Y9.9366 
G01 X-25.9386 Y10.0779 
G01 X-25.7725 Y10.1889 
G01 X-25.5879 Y10.2654 
G01 X-25.3919 Y10.3044 
G01 X-23.6681 Y10.3044 
G01 X-23.4721 Y10.2654 
G01 X-23.2875 Y10.1889 
G01 X-23.1214 Y10.0779 
G00 Z2.5400 
G00 X-23.1214 Y23.7421 
G01 Z-0.2540 F254.00 
G01 X-23.2875 Y23.6310 F508.00 
G01 X-23.4721 Y23.5546 
G01 X-23.6681 Y23.5156 
G01 X-25.3919 Y23.5156 
G01 X-25.5879 Y23.5546 
G01 X-25.7725 Y23.6310 
G01 X-25.9386 Y23.7421 
G01 X-26.0799 Y23.8834 
G01 X-26.1909 Y24.0495 
G01 X-26.2674 Y24.2341 
G01 X-26.3064 Y24.4301 
G01 X-26.3064 Y24.6299 
G01 X-26.2674 Y24.8259 
G01 X-26.1909 Y25.0105 
G01 X-26.0799 Y25.1766 
G01 X-25.9386 Y25.3179 
G01 X-25.7725 Y25.4289 
G01 X-25.5879 Y25.5054 
G01 X-25.3919 Y25.5444 
G01 X-23.6681 Y25.5444 
G01 X-23.4721 Y25.5054 
G01 X-23.2875 Y25.4289 
G01 X-23.1214 Y25.3179 
G01 X-22.9801 Y25.1766 
G01 X-22.8691 Y25.0105 
G01 X-22.7926 Y24.8259 
G01 X-22.7536 Y24.6299 
G01 X-22.7536 Y24.4301 
G01 X-22.7926 Y24.2341 
G01 X-22.8691 Y24.0495 
G01 X-22.9801 Y23.8834 
G01 X-23.1214 Y23.7421 
G00 Z2.5400 
G00 X-23.1214 Y26.2821 
G01 Z-0.2540 F254.00 
G01 X-23.2875 Y26.1711 F508.00 
G01 X-23.4721 Y26.0946 
G01 X-23.6681 Y26.0556 
G01 X-25.3919 Y26.0556 
G01 X-25.5879 Y26.0946 
G01 X-25.7725 Y26.1711 
G01 X-25.9386 Y26.2821 
G01 X-26.0799 Y26.4234 
G01 X-26.1909 Y26.5895 
G01 X-26.2674 Y26.7741 
G01 X-26.3064 Y26.9701 
G01 X-26.3064 Y27.1699 
G01 X-26.2674 Y27.3659 
G01 X-26.1909 Y27.5505 
G01 X-26.0799 Y27.7166 
G01 X-25.9386 Y27.8579 
G01 X-25.7725 Y27.9689 
G01 X-25.5879 Y28.0454 
G01 X-25.3919 Y28.0844 
G01 X-23.6681 Y28.0844 
G01 X-23.4721 Y28.0454 
G01 X-23.2875 Y27.9689 
G01 X-23.1214 Y27.8579 
G01 X-22.9801 Y27.7166 
G01 X-22.8691 Y27.5505 
G01 X-22.7926 Y27.3659 
G01 X-22.7536 Y27.1699 
G01 X-22.7536 Y26.9701 
G01 X-22.7926 Y26.7741 
G01 X-22.8691 Y26.5895 
G01 X-22.9801 Y26.4234 
G01 X-23.1214 Y26.2821 
G00 Z2.5400 
G00 X-0.0374 Y8.5464 
G01 Z-0.2540 F254.00 
G01 X-0.1644 Y8.4194 F508.00 
G01 X-0.3098 Y8.3138 
G01 X-0.4699 Y8.2322 
G01 X-0.6407 Y8.1767 
G01 X-0.8182 Y8.1486 
G01 X-2.5218 Y8.1486 
G01 X-2.6993 Y8.1767 
G01 X-2.8701 Y8.2322 
G01 X-3.0302 Y8.3138 
G01 X-3.1756 Y8.4194 
G01 X-3.2604 Y8.5042 
G01 X-7.0595 Y8.5042 
G01 X-9.8241 Y5.7396 
G01 X-9.9528 Y5.6536 
G01 X-9.9597 Y5.6508 
G01 X-9.9625 Y5.6453 
G01 X-10.0869 Y5.4741 
G01 X-10.2365 Y5.3244 
G01 X-10.4078 Y5.2000 
G01 X-10.5963 Y5.1039 
G01 X-10.7976 Y5.0385 
G01 X-11.0067 Y5.0054 
G01 X-11.2183 Y5.0054 
G01 X-11.4274 Y5.0385 
G01 X-11.6286 Y5.1039 
G01 X-11.8172 Y5.2000 
G01 X-11.9884 Y5.3244 
G01 X-12.1381 Y5.4741 
G01 X-12.2625 Y5.6453 
G01 X-12.3586 Y5.8338 
G01 X-12.4240 Y6.0351 
G01 X-12.4571 Y6.2442 
G01 X-12.4571 Y6.4558 
G01 X-12.4240 Y6.6649 
G01 X-12.3586 Y6.8661 
G01 X-12.2625 Y7.0547 
G01 X-12.1381 Y7.2259 
G01 X-11.9884 Y7.3756 
G01 X-11.8172 Y7.5000 
G01 X-11.6286 Y7.5961 
G01 X-11.4274 Y7.6615 
G01 X-11.2183 Y7.6946 
G01 X-11.0067 Y7.6946 
G01 X-10.7976 Y7.6615 
G01 X-10.5963 Y7.5961 
G01 X-10.4078 Y7.5000 
G01 X-10.3374 Y7.4489 
G01 X-8.4963 Y9.2900 
G01 X-10.0259 Y10.8196 
G01 X-10.1354 Y10.9291 
G01 X-10.2214 Y11.0578 
G01 X-10.2806 Y11.2008 
G01 X-10.3108 Y11.3526 
G01 X-10.3108 Y15.4189 
G01 X-10.4009 Y15.4844 
G01 X-10.5506 Y15.6341 
G01 X-10.6750 Y15.8053 
G01 X-10.7711 Y15.9939 
G01 X-10.7950 Y16.0674 
G01 X-10.8189 Y15.9939 
G01 X-10.9150 Y15.8053 
G01 X-11.0394 Y15.6341 
G01 X-11.1890 Y15.4844 
G01 X-11.2792 Y15.4189 
G01 X-11.2792 Y13.8926 
G01 X-11.3094 Y13.7408 
G01 X-11.3686 Y13.5978 
G01 X-11.4546 Y13.4691 
G01 X-11.5641 Y13.3596 
G01 X-13.7041 Y11.2196 
G01 X-13.8328 Y11.1336 
G01 X-13.9758 Y11.0744 
G01 X-14.1276 Y11.0442 
G01 X-15.7242 Y11.0442 
G01 X-15.7242 Y7.6116 
G01 X-15.6763 Y7.5961 
G01 X-15.4878 Y7.5000 
G01 X-15.3165 Y7.3756 
G01 X-15.1669 Y7.2259 
G01 X-15.0425 Y7.0547 
G01 X-14.9464 Y6.8661 
G01 X-14.8810 Y6.6649 
G01 X-14.8479 Y6.4558 
G01 X-14.8479 Y6.2442 
G01 X-14.8810 Y6.0351 
G01 X-14.9464 Y5.8338 
G01 X-15.0425 Y5.6453 
G01 X-15.1669 Y5.4741 
G01 X-15.3165 Y5.3244 
G01 X-15.4878 Y5.2000 
G01 X-15.6763 Y5.1039 
G01 X-15.8776 Y5.0385 
G01 X-16.0867 Y5.0054 
G01 X-16.2983 Y5.0054 
G01 X-16.5074 Y5.0385 
G01 X-16.7086 Y5.1039 
G01 X-16.8972 Y5.2000 
G01 X-17.0684 Y5.3244 
G01 X-17.2181 Y5.4741 
G01 X-17.3425 Y5.6453 
G01 X-17.4386 Y5.8338 
G01 X-17.5040 Y6.0351 
G01 X-17.5371 Y6.2442 
G01 X-17.5371 Y6.4558 
G01 X-17.5040 Y6.6649 
G01 X-17.4386 Y6.8661 
G01 X-17.3425 Y7.0547 
G01 X-17.2958 Y7.1190 
G01 X-17.2958 Y11.0442 
G01 X-22.9396 Y11.0442 
G01 X-23.0244 Y10.9594 
G01 X-23.1698 Y10.8538 
G01 X-23.3299 Y10.7722 
G01 X-23.5007 Y10.7167 
G01 X-23.6782 Y10.6886 
G01 X-25.3818 Y10.6886 
G01 X-25.5593 Y10.7167 
G01 X-25.7301 Y10.7722 
G01 X-25.8902 Y10.8538 
G01 X-26.0356 Y10.9594 
G01 X-26.1626 Y11.0864 
G01 X-26.2682 Y11.2318 
G01 X-26.3498 Y11.3919 
G01 X-26.4053 Y11.5627 
G01 X-26.4334 Y11.7402 
G01 X-26.4334 Y11.9198 
G01 X-26.4053 Y12.0973 
G01 X-26.3498 Y12.2681 
G01 X-26.2682 Y12.4282 
G01 X-26.1626 Y12.5736 
G01 X-26.0356 Y12.7006 
G01 X-25.8902 Y12.8062 
G01 X-25.7301 Y12.8878 
G01 X-25.5593 Y12.9433 
G01 X-25.3818 Y12.9714 
G01 X-23.6782 Y12.9714 
G01 X-23.5007 Y12.9433 
G01 X-23.3299 Y12.8878 
G01 X-23.1698 Y12.8062 
G01 X-23.0244 Y12.7006 
G01 X-22.9396 Y12.6158 
G01 X-14.5305 Y12.6158 
G01 X-12.8508 Y14.2955 
G01 X-12.8508 Y15.4189 
G01 X-12.9409 Y15.4844 
G01 X-13.0906 Y15.6341 
G01 X-13.2150 Y15.8053 
G01 X-13.3111 Y15.9939 
G01 X-13.3350 Y16.0674 
G01 X-13.3589 Y15.9939 
G01 X-13.4550 Y15.8053 
G01 X-13.5794 Y15.6341 
G01 X-13.7291 Y15.4844 
G01 X-13.9003 Y15.3600 
G01 X-14.0889 Y15.2639 
G01 X-14.2901 Y15.1985 
G01 X-14.4992 Y15.1654 
G01 X-14.7108 Y15.1654 
G01 X-14.9199 Y15.1985 
G01 X-15.1211 Y15.2639 
G01 X-15.3097 Y15.3600 
G01 X-15.4809 Y15.4844 
G01 X-15.6306 Y15.6341 
G01 X-15.7550 Y15.8053 
G01 X-15.8511 Y15.9939 
G01 X-15.8750 Y16.0674 
G01 X-15.8989 Y15.9939 
G01 X-15.9950 Y15.8053 
G01 X-16.1194 Y15.6341 
G01 X-16.2691 Y15.4844 
G01 X-16.4403 Y15.3600 
G01 X-16.6288 Y15.2639 
G01 X-16.8301 Y15.1985 
G01 X-17.0392 Y15.1654 
G01 X-17.2508 Y15.1654 
G01 X-17.4599 Y15.1985 
G01 X-17.6611 Y15.2639 
G01 X-17.8497 Y15.3600 
G01 X-18.0209 Y15.4844 
G01 X-18.1706 Y15.6341 
G01 X-18.2950 Y15.8053 
G01 X-18.3911 Y15.9939 
G01 X-18.4565 Y16.1951 
G01 X-18.4896 Y16.4042 
G01 X-18.4896 Y16.6158 
G01 X-18.4565 Y16.8249 
G01 X-18.3911 Y17.0261 
G01 X-18.2950 Y17.2147 
G01 X-18.1706 Y17.3859 
G01 X-18.0209 Y17.5356 
G01 X-17.9308 Y17.6011 
G01 X-17.9308 Y17.7720 
G01 X-18.8230 Y18.6642 
G01 X-22.9396 Y18.6642 
G01 X-23.0244 Y18.5794 
G01 X-23.1698 Y18.4738 
G01 X-23.3299 Y18.3922 
G01 X-23.5007 Y18.3367 
G01 X-23.6782 Y18.3086 
G01 X-25.3818 Y18.3086 
G01 X-25.5593 Y18.3367 
G01 X-25.7301 Y18.3922 
G01 X-25.8902 Y18.4738 
G01 X-26.0356 Y18.5794 
G01 X-26.1626 Y18.7064 
G01 X-26.2682 Y18.8518 
G01 X-26.3498 Y19.0119 
G01 X-26.4053 Y19.1827 
G01 X-26.4334 Y19.3602 
G01 X-26.4334 Y19.5398 
G01 X-26.4053 Y19.7173 
G01 X-26.3498 Y19.8881 
G01 X-26.2682 Y20.0482 
G01 X-26.1626 Y20.1936 
G01 X-26.0356 Y20.3206 
G01 X-25.8902 Y20.4262 
G01 X-25.7301 Y20.5078 
G01 X-25.5593 Y20.5633 
G01 X-25.3818 Y20.5914 
G01 X-23.6782 Y20.5914 
G01 X-23.5007 Y20.5633 
G01 X-23.3299 Y20.5078 
G01 X-23.1698 Y20.4262 
G01 X-23.0244 Y20.3206 
G01 X-22.9396 Y20.2358 
G01 X-18.4201 Y20.2358 
G01 X-18.2683 Y20.2056 
G01 X-18.1253 Y20.1464 
G01 X-17.9966 Y20.0604 
G01 X-17.8871 Y19.9509 
G01 X-16.6441 Y18.7079 
G01 X-16.5346 Y18.5984 
G01 X-16.4486 Y18.4697 
G01 X-16.3894 Y18.3267 
G01 X-16.3592 Y18.1749 
G01 X-16.3592 Y17.6011 
G01 X-16.2691 Y17.5356 
G01 X-16.1194 Y17.3859 
G01 X-15.9950 Y17.2147 
G01 X-15.8989 Y17.0261 
G01 X-15.8750 Y16.9525 
G01 X-15.8511 Y17.0261 
G01 X-15.7550 Y17.2147 
G01 X-15.6306 Y17.3859 
G01 X-15.4809 Y17.5356 
G01 X-15.3908 Y17.6011 
G01 X-15.3908 Y19.3595 
G01 X-17.2355 Y21.2042 
G01 X-22.9396 Y21.2042 
G01 X-23.0244 Y21.1194 
G01 X-23.1698 Y21.0138 
G01 X-23.3299 Y20.9322 
G01 X-23.5007 Y20.8767 
G01 X-23.6782 Y20.8486 
G01 X-25.3818 Y20.8486 
G01 X-25.5593 Y20.8767 
G01 X-25.7301 Y20.9322 
G01 X-25.8902 Y21.0138 
G01 X-26.0356 Y21.1194 
G01 X-26.1626 Y21.2464 
G01 X-26.2682 Y21.3918 
G01 X-26.3498 Y21.5519 
G01 X-26.4053 Y21.7227 
G01 X-26.4334 Y21.9002 
G01 X-26.4334 Y22.0798 
G01 X-26.4053 Y22.2573 
G01 X-26.3498 Y22.4281 
G01 X-26.2682 Y22.5882 
G01 X-26.1626 Y22.7336 
G01 X-26.0356 Y22.8606 
G01 X-25.8902 Y22.9662 
G01 X-25.7301 Y23.0478 
G01 X-25.5593 Y23.1033 
G01 X-25.3818 Y23.1314 
G01 X-23.6782 Y23.1314 
G01 X-23.5007 Y23.1033 
G01 X-23.3299 Y23.0478 
G01 X-23.1698 Y22.9662 
G01 X-23.0244 Y22.8606 
G01 X-22.9396 Y22.7758 
G01 X-16.8326 Y22.7758 
G01 X-16.6808 Y22.7456 
G01 X-16.5378 Y22.6864 
G01 X-16.4091 Y22.6004 
G01 X-14.1041 Y20.2954 
G01 X-13.9946 Y20.1859 
G01 X-13.9086 Y20.0572 
G01 X-13.8494 Y19.9142 
G01 X-13.8192 Y19.7624 
G01 X-13.8192 Y17.6011 
G01 X-13.7291 Y17.5356 
G01 X-13.5794 Y17.3859 
G01 X-13.4550 Y17.2147 
G01 X-13.3589 Y17.0261 
G01 X-13.3350 Y16.9525 
G01 X-13.3111 Y17.0261 
G01 X-13.2150 Y17.2147 
G01 X-13.0906 Y17.3859 
G01 X-12.9409 Y17.5356 
G01 X-12.7697 Y17.6600 
G01 X-12.5811 Y17.7561 
G01 X-12.3799 Y17.8215 
G01 X-12.1708 Y17.8546 
G01 X-11.9592 Y17.8546 
G01 X-11.7501 Y17.8215 
G01 X-11.5488 Y17.7561 
G01 X-11.3603 Y17.6600 
G01 X-11.1890 Y17.5356 
G01 X-11.0394 Y17.3859 
G01 X-10.9150 Y17.2147 
G01 X-10.8189 Y17.0261 
G01 X-10.7950 Y16.9525 
G01 X-10.7711 Y17.0261 
G01 X-10.6750 Y17.2147 
G01 X-10.5506 Y17.3859 
G01 X-10.4009 Y17.5356 
G01 X-10.2297 Y17.6600 
G01 X-10.0411 Y17.7561 
G01 X-9.8399 Y17.8215 
G01 X-9.6308 Y17.8546 
G01 X-9.4192 Y17.8546 
G01 X-9.2101 Y17.8215 
G01 X-9.0089 Y17.7561 
G01 X-8.8203 Y17.6600 
G01 X-8.6491 Y17.5356 
G01 X-8.4994 Y17.3859 
G01 X-8.3750 Y17.2147 
G01 X-8.2789 Y17.0261 
G01 X-8.2135 Y16.8249 
G01 X-8.1804 Y16.6158 
G01 X-8.1804 Y16.4042 
G01 X-8.2135 Y16.1951 
G01 X-8.2789 Y15.9939 
G01 X-8.3750 Y15.8053 
G01 X-8.4994 Y15.6341 
G01 X-8.6491 Y15.4844 
G01 X-8.7392 Y15.4189 
G01 X-8.7392 Y11.7555 
G01 X-7.0595 Y10.0758 
G01 X-3.2604 Y10.0758 
G01 X-3.1756 Y10.1606 
G01 X-3.0302 Y10.2662 
G01 X-2.8701 Y10.3478 
G01 X-2.6993 Y10.4033 
G01 X-2.5218 Y10.4314 
G01 X-0.8182 Y10.4314 
G01 X-0.6407 Y10.4033 
G01 X-0.4699 Y10.3478 
G01 X-0.3098 Y10.2662 
G01 X-0.1644 Y10.1606 
G01 X-0.0374 Y10.0336 
G01 X0.0682 Y9.8882 
G01 X0.1498 Y9.7281 
G01 X0.2053 Y9.5573 
G01 X0.2334 Y9.3798 
G01 X0.2334 Y9.2002 
G01 X0.2053 Y9.0227 
G01 X0.1498 Y8.8519 
G01 X0.0682 Y8.6918 
G01 X-0.0374 Y8.5464 
G00 Z2.5400 
G00 X-0.0374 Y11.0864 
G01 Z-0.2540 F254.00 
G01 X-0.1644 Y10.9594 F508.00 
G01 X-0.3098 Y10.8538 
G01 X-0.4699 Y10.7722 
G01 X-0.6407 Y10.7167 
G01 X-0.8182 Y10.6886 
G01 X-2.5218 Y10.6886 
G01 X-2.6993 Y10.7167 
G01 X-2.8701 Y10.7722 
G01 X-3.0302 Y10.8538 
G01 X-3.1756 Y10.9594 
G01 X-3.3026 Y11.0864 
G01 X-3.4082 Y11.2318 
G01 X-3.4898 Y11.3919 
G01 X-3.5453 Y11.5627 
G01 X-3.5734 Y11.7402 
G01 X-3.5734 Y11.9198 
G01 X-3.5453 Y12.0973 
G01 X-3.4898 Y12.2681 
G01 X-3.4082 Y12.4282 
G01 X-3.3026 Y12.5736 
G01 X-3.1756 Y12.7006 
G01 X-3.0302 Y12.8062 
G01 X-2.8701 Y12.8878 
G01 X-2.6993 Y12.9433 
G01 X-2.5218 Y12.9714 
G01 X-0.8182 Y12.9714 
G01 X-0.6407 Y12.9433 
G01 X-0.4699 Y12.8878 
G01 X-0.3098 Y12.8062 
G01 X-0.1644 Y12.7006 
G01 X-0.0374 Y12.5736 
G01 X0.0682 Y12.4282 
G01 X0.1498 Y12.2681 
G01 X0.2053 Y12.0973 
G01 X0.2334 Y11.9198 
G01 X0.2334 Y11.7402 
G01 X0.2053 Y11.5627 
G01 X0.1498 Y11.3919 
G01 X0.0682 Y11.2318 
G01 X-0.0374 Y11.0864 
G00 Z2.5400 
G00 X-0.0374 Y13.6264 
G01 Z-0.2540 F254.00 
G01 X-0.1644 Y13.4994 F508.00 
G01 X-0.3098 Y13.3938 
G01 X-0.4699 Y13.3122 
G01 X-0.6407 Y13.2567 
G01 X-0.8182 Y13.2286 
G01 X-2.5218 Y13.2286 
G01 X-2.6993 Y13.2567 
G01 X-2.8701 Y13.3122 
G01 X-3.0302 Y13.3938 
G01 X-3.1756 Y13.4994 
G01 X-3.3026 Y13.6264 
G01 X-3.4082 Y13.7718 
G01 X-3.4898 Y13.9319 
G01 X-3.5453 Y14.1027 
G01 X-3.5734 Y14.2802 
G01 X-3.5734 Y14.4598 
G01 X-3.5453 Y14.6373 
G01 X-3.4898 Y14.8081 
G01 X-3.4082 Y14.9682 
G01 X-3.3026 Y15.1136 
G01 X-3.1756 Y15.2406 
G01 X-3.0302 Y15.3462 
G01 X-2.8701 Y15.4278 
G01 X-2.6993 Y15.4833 
G01 X-2.5218 Y15.5114 
G01 X-0.8182 Y15.5114 
G01 X-0.6407 Y15.4833 
G01 X-0.4699 Y15.4278 
G01 X-0.3098 Y15.3462 
G01 X-0.1644 Y15.2406 
G01 X-0.0374 Y15.1136 
G01 X0.0682 Y14.9682 
G01 X0.1498 Y14.8081 
G01 X0.2053 Y14.6373 
G01 X0.2334 Y14.4598 
G01 X0.2334 Y14.2802 
G01 X0.2053 Y14.1027 
G01 X0.1498 Y13.9319 
G01 X0.0682 Y13.7718 
G01 X-0.0374 Y13.6264 
G00 Z2.5400 
G00 X-0.0374 Y16.1664 
G01 Z-0.2540 F254.00 
G01 X-0.1644 Y16.0394 F508.00 
G01 X-0.3098 Y15.9338 
G01 X-0.4699 Y15.8522 
G01 X-0.6407 Y15.7967 
G01 X-0.8182 Y15.7686 
G01 X-2.5218 Y15.7686 
G01 X-2.6993 Y15.7967 
G01 X-2.8701 Y15.8522 
G01 X-3.0302 Y15.9338 
G01 X-3.1756 Y16.0394 
G01 X-3.3026 Y16.1664 
G01 X-3.4082 Y16.3118 
G01 X-3.4898 Y16.4719 
G01 X-3.5453 Y16.6427 
G01 X-3.5734 Y16.8202 
G01 X-3.5734 Y16.9998 
G01 X-3.5453 Y17.1773 
G01 X-3.4898 Y17.3481 
G01 X-3.4082 Y17.5082 
G01 X-3.3026 Y17.6536 
G01 X-3.1756 Y17.7806 
G01 X-3.0302 Y17.8862 
G01 X-2.8701 Y17.9678 
G01 X-2.6993 Y18.0233 
G01 X-2.5218 Y18.0514 
G01 X-0.8182 Y18.0514 
G01 X-0.6407 Y18.0233 
G01 X-0.4699 Y17.9678 
G01 X-0.3098 Y17.8862 
G01 X-0.1644 Y17.7806 
G01 X-0.0374 Y17.6536 
G01 X0.0682 Y17.5082 
G01 X0.1498 Y17.3481 
G01 X0.2053 Y17.1773 
G01 X0.2334 Y16.9998 
G01 X0.2334 Y16.8202 
G01 X0.2053 Y16.6427 
G01 X0.1498 Y16.4719 
G01 X0.0682 Y16.3118 
G01 X-0.0374 Y16.1664 
G00 Z2.5400 
G00 X-0.0374 Y18.7064 
G01 Z-0.2540 F254.00 
G01 X-0.1644 Y18.5794 F508.00 
G01 X-0.3098 Y18.4738 
G01 X-0.4699 Y18.3922 
G01 X-0.6407 Y18.3367 
G01 X-0.8182 Y18.3086 
G01 X-2.5218 Y18.3086 
G01 X-2.6993 Y18.3367 
G01 X-2.8701 Y18.3922 
G01 X-3.0302 Y18.4738 
G01 X-3.1756 Y18.5794 
G01 X-3.3026 Y18.7064 
G01 X-3.4082 Y18.8518 
G01 X-3.4898 Y19.0119 
G01 X-3.5453 Y19.1827 
G01 X-3.5734 Y19.3602 
G01 X-3.5734 Y19.5398 
G01 X-3.5453 Y19.7173 
G01 X-3.4898 Y19.8881 
G01 X-3.4082 Y20.0482 
G01 X-3.3026 Y20.1936 
G01 X-3.1756 Y20.3206 
G01 X-3.0302 Y20.4262 
G01 X-2.8701 Y20.5078 
G01 X-2.6993 Y20.5633 
G01 X-2.5218 Y20.5914 
G01 X-0.8182 Y20.5914 
G01 X-0.6407 Y20.5633 
G01 X-0.4699 Y20.5078 
G01 X-0.3098 Y20.4262 
G01 X-0.1644 Y20.3206 
G01 X-0.0374 Y20.1936 
G01 X0.0682 Y20.0482 
G01 X0.1498 Y19.8881 
G01 X0.2053 Y19.7173 
G01 X0.2334 Y19.5398 
G01 X0.2334 Y19.3602 
G01 X0.2053 Y19.1827 
G01 X0.1498 Y19.0119 
G01 X0.0682 Y18.8518 
G01 X-0.0374 Y18.7064 
G00 Z2.5400 
G00 X-0.0374 Y21.2464 
G01 Z-0.2540 F254.00 
G01 X-0.1644 Y21.1194 F508.00 
G01 X-0.3098 Y21.0138 
G01 X-0.4699 Y20.9322 
G01 X-0.6407 Y20.8767 
G01 X-0.8182 Y20.8486 
G01 X-2.5218 Y20.8486 
G01 X-2.6993 Y20.8767 
G01 X-2.8701 Y20.9322 
G01 X-3.0302 Y21.0138 
G01 X-3.1756 Y21.1194 
G01 X-3.3026 Y21.2464 
G01 X-3.4082 Y21.3918 
G01 X-3.4898 Y21.5519 
G01 X-3.5453 Y21.7227 
G01 X-3.5734 Y21.9002 
G01 X-3.5734 Y22.0798 
G01 X-3.5453 Y22.2573 
G01 X-3.4898 Y22.4281 
G01 X-3.4082 Y22.5882 
G01 X-3.3026 Y22.7336 
G01 X-3.1756 Y22.8606 
G01 X-3.0302 Y22.9662 
G01 X-2.8701 Y23.0478 
G01 X-2.6993 Y23.1033 
G01 X-2.5218 Y23.1314 
G01 X-0.8182 Y23.1314 
G01 X-0.6407 Y23.1033 
G01 X-0.4699 Y23.0478 
G01 X-0.3098 Y22.9662 
G01 X-0.1644 Y22.8606 
G01 X-0.0374 Y22.7336 
G01 X0.0682 Y22.5882 
G01 X0.1498 Y22.4281 
G01 X0.2053 Y22.2573 
G01 X0.2334 Y22.0798 
G01 X0.2334 Y21.9002 
G01 X0.2053 Y21.7227 
G01 X0.1498 Y21.5519 
G01 X0.0682 Y21.3918 
G01 X-0.0374 Y21.2464 
G00 Z2.5400 
G00 X-0.0374 Y23.7864 
G01 Z-0.2540 F254.00 
G01 X-0.1644 Y23.6594 F508.00 
G01 X-0.3098 Y23.5538 
G01 X-0.4699 Y23.4722 
G01 X-0.6407 Y23.4167 
G01 X-0.8182 Y23.3886 
G01 X-2.5218 Y23.3886 
G01 X-2.6993 Y23.4167 
G01 X-2.8701 Y23.4722 
G01 X-3.0302 Y23.5538 
G01 X-3.1756 Y23.6594 
G01 X-3.3026 Y23.7864 
G01 X-3.4082 Y23.9318 
G01 X-3.4898 Y24.0919 
G01 X-3.5453 Y24.2627 
G01 X-3.5734 Y24.4402 
G01 X-3.5734 Y24.6198 
G01 X-3.5453 Y24.7973 
G01 X-3.4898 Y24.9681 
G01 X-3.4082 Y25.1282 
G01 X-3.3026 Y25.2736 
G01 X-3.1756 Y25.4006 
G01 X-3.0302 Y25.5062 
G01 X-2.8701 Y25.5878 
G01 X-2.6993 Y25.6433 
G01 X-2.5218 Y25.6714 
G01 X-0.8182 Y25.6714 
G01 X-0.6407 Y25.6433 
G01 X-0.4699 Y25.5878 
G01 X-0.3098 Y25.5062 
G01 X-0.1644 Y25.4006 
G01 X-0.0374 Y25.2736 
G01 X0.0682 Y25.1282 
G01 X0.1498 Y24.9681 
G01 X0.2053 Y24.7973 
G01 X0.2334 Y24.6198 
G01 X0.2334 Y24.4402 
G01 X0.2053 Y24.2627 
G01 X0.1498 Y24.0919 
G01 X0.0682 Y23.9318 
G01 X-0.0374 Y23.7864 
G00 Z2.5400 
G00 X-0.0374 Y26.3264 
G01 Z-0.2540 F254.00 
G01 X-0.1644 Y26.1994 F508.00 
G01 X-0.3098 Y26.0938 
G01 X-0.4699 Y26.0122 
G01 X-0.6407 Y25.9567 
G01 X-0.8182 Y25.9286 
G01 X-2.5218 Y25.9286 
G01 X-2.6993 Y25.9567 
G01 X-2.8701 Y26.0122 
G01 X-3.0302 Y26.0938 
G01 X-3.1756 Y26.1994 
G01 X-3.3026 Y26.3264 
G01 X-3.4082 Y26.4718 
G01 X-3.4898 Y26.6319 
G01 X-3.5453 Y26.8027 
G01 X-3.5734 Y26.9802 
G01 X-3.5734 Y27.1598 
G01 X-3.5453 Y27.3373 
G01 X-3.4898 Y27.5081 
G01 X-3.4082 Y27.6682 
G01 X-3.3026 Y27.8136 
G01 X-3.1756 Y27.9406 
G01 X-3.0302 Y28.0462 
G01 X-2.8701 Y28.1278 
G01 X-2.6993 Y28.1833 
G01 X-2.5218 Y28.2114 
G01 X-0.8182 Y28.2114 
G01 X-0.6407 Y28.1833 
G01 X-0.4699 Y28.1278 
G01 X-0.3098 Y28.0462 
G01 X-0.1644 Y27.9406 
G01 X-0.0374 Y27.8136 
G01 X0.0682 Y27.6682 
G01 X0.1498 Y27.5081 
G01 X0.2053 Y27.3373 
G01 X0.2334 Y27.1598 
G01 X0.2334 Y26.9802 
G01 X0.2053 Y26.8027 
G01 X0.1498 Y26.6319 
G01 X0.0682 Y26.4718 
G01 X-0.0374 Y26.3264 
G00 Z2.5400 
G00 X-22.8974 Y26.3264 
G01 Z-0.2540 F254.00 
G01 X-23.0244 Y26.1994 F508.00 
G01 X-23.1698 Y26.0938 
G01 X-23.3299 Y26.0122 
G01 X-23.5007 Y25.9567 
G01 X-23.6782 Y25.9286 
G01 X-25.3818 Y25.9286 
G01 X-25.5593 Y25.9567 
G01 X-25.7301 Y26.0122 
G01 X-25.8902 Y26.0938 
G01 X-26.0356 Y26.1994 
G01 X-26.1626 Y26.3264 
G01 X-26.2682 Y26.4718 
G01 X-26.3498 Y26.6319 
G01 X-26.4053 Y26.8027 
G01 X-26.4334 Y26.9802 
G01 X-26.4334 Y27.1598 
G01 X-26.4053 Y27.3373 
G01 X-26.3498 Y27.5081 
G01 X-26.2682 Y27.6682 
G01 X-26.1626 Y27.8136 
G01 X-26.0356 Y27.9406 
G01 X-25.8902 Y28.0462 
G01 X-25.7301 Y28.1278 
G01 X-25.5593 Y28.1833 
G01 X-25.3818 Y28.2114 
G01 X-23.6782 Y28.2114 
G01 X-23.5007 Y28.1833 
G01 X-23.3299 Y28.1278 
G01 X-23.1698 Y28.0462 
G01 X-23.0244 Y27.9406 
G01 X-22.8974 Y27.8136 
G01 X-22.7918 Y27.6682 
G01 X-22.7102 Y27.5081 
G01 X-22.6547 Y27.3373 
G01 X-22.6266 Y27.1598 
G01 X-22.6266 Y26.9802 
G01 X-22.6547 Y26.8027 
G01 X-22.7102 Y26.6319 
G01 X-22.7918 Y26.4718 
G01 X-22.8974 Y26.3264 
G00 Z2.5400 
G00 X-23.0244 Y25.4006 
G01 Z-0.2540 F254.00 
G01 X-22.8974 Y25.2736 F508.00 
G01 X-22.7918 Y25.1282 
G01 X-22.7102 Y24.9681 
G01 X-22.6547 Y24.7973 
G01 X-22.6266 Y24.6198 
G01 X-22.6266 Y24.4402 
G01 X-22.6547 Y24.2627 
G01 X-22.7102 Y24.0919 
G01 X-22.7918 Y23.9318 
G01 X-22.8974 Y23.7864 
G01 X-23.0244 Y23.6594 
G01 X-23.1698 Y23.5538 
G01 X-23.3299 Y23.4722 
G01 X-23.5007 Y23.4167 
G01 X-23.6782 Y23.3886 
G01 X-25.3818 Y23.3886 
G01 X-25.5593 Y23.4167 
G01 X-25.7301 Y23.4722 
G01 X-25.8902 Y23.5538 
G01 X-26.0356 Y23.6594 
G01 X-26.1626 Y23.7864 
G01 X-26.2682 Y23.9318 
G01 X-26.3498 Y24.0919 
G01 X-26.4053 Y24.2627 
G01 X-26.4334 Y24.4402 
G01 X-26.4334 Y24.6198 
G01 X-26.4053 Y24.7973 
G01 X-26.3498 Y24.9681 
G01 X-26.2682 Y25.1282 
G01 X-26.1626 Y25.2736 
G01 X-26.0356 Y25.4006 
G01 X-25.8902 Y25.5062 
G01 X-25.7301 Y25.5878 
G01 X-25.5593 Y25.6433 
G01 X-25.3818 Y25.6714 
G01 X-23.6782 Y25.6714 
G01 X-23.5007 Y25.6433 
G01 X-23.3299 Y25.5878 
G01 X-23.1698 Y25.5062 
G01 X-23.0244 Y25.4006 
G00 Z2.5400 
G00 X-23.0244 Y17.7806 
G01 Z-0.2540 F254.00 
G01 X-22.8974 Y17.6536 F508.00 
G01 X-22.7918 Y17.5082 
G01 X-22.7102 Y17.3481 
G01 X-22.6547 Y17.1773 
G01 X-22.6266 Y16.9998 
G01 X-22.6266 Y16.8202 
G01 X-22.6547 Y16.6427 
G01 X-22.7102 Y16.4719 
G01 X-22.7918 Y16.3118 
G01 X-22.8974 Y16.1664 
G01 X-23.0244 Y16.0394 
G01 X-23.1698 Y15.9338 
G01 X-23.3299 Y15.8522 
G01 X-23.5007 Y15.7967 
G01 X-23.6782 Y15.7686 
G01 X-25.3818 Y15.7686 
G01 X-25.5593 Y15.7967 
G01 X-25.7301 Y15.8522 
G01 X-25.8902 Y15.9338 
G01 X-26.0356 Y16.0394 
G01 X-26.1626 Y16.1664 
G01 X-26.2682 Y16.3118 
G01 X-26.3498 Y16.4719 
G01 X-26.4053 Y16.6427 
G01 X-26.4334 Y16.8202 
G01 X-26.4334 Y16.9998 
G01 X-26.4053 Y17.1773 
G01 X-26.3498 Y17.3481 
G01 X-26.2682 Y17.5082 
G01 X-26.1626 Y17.6536 
G01 X-26.0356 Y17.7806 
G01 X-25.8902 Y17.8862 
G01 X-25.7301 Y17.9678 
G01 X-25.5593 Y18.0233 
G01 X-25.3818 Y18.0514 
G01 X-23.6782 Y18.0514 
G01 X-23.5007 Y18.0233 
G01 X-23.3299 Y17.9678 
G01 X-23.1698 Y17.8862 
G01 X-23.0244 Y17.7806 
G00 Z2.5400 
G00 X-23.0244 Y15.2406 
G01 Z-0.2540 F254.00 
G01 X-22.8974 Y15.1136 F508.00 
G01 X-22.7918 Y14.9682 
G01 X-22.7102 Y14.8081 
G01 X-22.6547 Y14.6373 
G01 X-22.6266 Y14.4598 
G01 X-22.6266 Y14.2802 
G01 X-22.6547 Y14.1027 
G01 X-22.7102 Y13.9319 
G01 X-22.7918 Y13.7718 
G01 X-22.8974 Y13.6264 
G01 X-23.0244 Y13.4994 
G01 X-23.1698 Y13.3938 
G01 X-23.3299 Y13.3122 
G01 X-23.5007 Y13.2567 
G01 X-23.6782 Y13.2286 
G01 X-25.3818 Y13.2286 
G01 X-25.5593 Y13.2567 
G01 X-25.7301 Y13.3122 
G01 X-25.8902 Y13.3938 
G01 X-26.0356 Y13.4994 
G01 X-26.1626 Y13.6264 
G01 X-26.2682 Y13.7718 
G01 X-26.3498 Y13.9319 
G01 X-26.4053 Y14.1027 
G01 X-26.4334 Y14.2802 
G01 X-26.4334 Y14.4598 
G01 X-26.4053 Y14.6373 
G01 X-26.3498 Y14.8081 
G01 X-26.2682 Y14.9682 
G01 X-26.1626 Y15.1136 
G01 X-26.0356 Y15.2406 
G01 X-25.8902 Y15.3462 
G01 X-25.7301 Y15.4278 
G01 X-25.5593 Y15.4833 
G01 X-25.3818 Y15.5114 
G01 X-23.6782 Y15.5114 
G01 X-23.5007 Y15.4833 
G01 X-23.3299 Y15.4278 
G01 X-23.1698 Y15.3462 
G01 X-23.0244 Y15.2406 
G00 Z2.5400 
G00 X-23.0244 Y10.1606 
G01 Z-0.2540 F254.00 
G01 X-22.8974 Y10.0336 F508.00 
G01 X-22.7918 Y9.8882 
G01 X-22.7102 Y9.7281 
G01 X-22.6547 Y9.5573 
G01 X-22.6266 Y9.3798 
G01 X-22.6266 Y9.2002 
G01 X-22.6547 Y9.0227 
G01 X-22.7102 Y8.8519 
G01 X-22.7918 Y8.6918 
G01 X-22.8974 Y8.5464 
G01 X-23.0244 Y8.4194 
G01 X-23.1698 Y8.3138 
G01 X-23.3299 Y8.2322 
G01 X-23.5007 Y8.1767 
G01 X-23.6782 Y8.1486 
G01 X-25.3818 Y8.1486 
G01 X-25.5593 Y8.1767 
G01 X-25.7301 Y8.2322 
G01 X-25.8902 Y8.3138 
G01 X-26.0356 Y8.4194 
G01 X-26.1626 Y8.5464 
G01 X-26.2682 Y8.6918 
G01 X-26.3498 Y8.8519 
G01 X-26.4053 Y9.0227 
G01 X-26.4334 Y9.2002 
G01 X-26.4334 Y9.3798 
G01 X-26.4053 Y9.5573 
G01 X-26.3498 Y9.7281 
G01 X-26.2682 Y9.8882 
G01 X-26.1626 Y10.0336 
G01 X-26.0356 Y10.1606 
G01 X-25.8902 Y10.2662 
G01 X-25.7301 Y10.3478 
G01 X-25.5593 Y10.4033 
G01 X-25.3818 Y10.4314 
G01 X-23.6782 Y10.4314 
G01 X-23.5007 Y10.4033 
G01 X-23.3299 Y10.3478 
G01 X-23.1698 Y10.2662 
G01 X-23.0244 Y10.1606 
G00 Z2.5400 
G00 X-0.0817 Y8.3225 
G01 Z-0.2540 F254.00 
G01 X-0.2432 Y8.2052 F508.00 
G01 X-0.4211 Y8.1145 
G01 X-0.6110 Y8.0528 
G01 X-0.8082 Y8.0216 
G01 X-2.5318 Y8.0216 
G01 X-2.7290 Y8.0528 
G01 X-2.9189 Y8.1145 
G01 X-3.0968 Y8.2052 
G01 X-3.2583 Y8.3225 
G01 X-3.3130 Y8.3772 
G01 X-7.0069 Y8.3772 
G01 X-9.7431 Y5.6410 
G01 X-9.8704 Y5.5559 
G01 X-9.9900 Y5.3913 
G01 X-10.1538 Y5.2275 
G01 X-10.3412 Y5.0914 
G01 X-10.5476 Y4.9862 
G01 X-10.7679 Y4.9146 
G01 X-10.9967 Y4.8784 
G01 X-11.2283 Y4.8784 
G01 X-11.4571 Y4.9146 
G01 X-11.6774 Y4.9862 
G01 X-11.8838 Y5.0914 
G01 X-12.0712 Y5.2275 
G01 X-12.2350 Y5.3913 
G01 X-12.3711 Y5.5787 
G01 X-12.4763 Y5.7851 
G01 X-12.5479 Y6.0054 
G01 X-12.5841 Y6.2342 
G01 X-12.5841 Y6.4658 
G01 X-12.5479 Y6.6946 
G01 X-12.4763 Y6.9149 
G01 X-12.3711 Y7.1213 
G01 X-12.2350 Y7.3087 
G01 X-12.0712 Y7.4725 
G01 X-11.8838 Y7.6086 
G01 X-11.6774 Y7.7138 
G01 X-11.4571 Y7.7854 
G01 X-11.2283 Y7.8216 
G01 X-10.9967 Y7.8216 
G01 X-10.7679 Y7.7854 
G01 X-10.5476 Y7.7138 
G01 X-10.3519 Y7.6140 
G01 X-8.6759 Y9.2900 
G01 X-10.1069 Y10.7210 
G01 X-10.2340 Y10.8481 
G01 X-10.3339 Y10.9976 
G01 X-10.4027 Y11.1637 
G01 X-10.4378 Y11.3401 
G01 X-10.4378 Y15.3542 
G01 X-10.4837 Y15.3875 
G01 X-10.6475 Y15.5513 
G01 X-10.7836 Y15.7387 
G01 X-10.7950 Y15.7610 
G01 X-10.8064 Y15.7387 
G01 X-10.9425 Y15.5513 
G01 X-11.1063 Y15.3875 
G01 X-11.1522 Y15.3542 
G01 X-11.1522 Y13.8801 
G01 X-11.1873 Y13.7037 
G01 X-11.2561 Y13.5376 
G01 X-11.3560 Y13.3881 
G01 X-11.4831 Y13.2610 
G01 X-13.6231 Y11.1210 
G01 X-13.7726 Y11.0211 
G01 X-13.9387 Y10.9523 
G01 X-14.1151 Y10.9172 
G01 X-15.5972 Y10.9172 
G01 X-15.5972 Y7.6983 
G01 X-15.4212 Y7.6086 
G01 X-15.2338 Y7.4725 
G01 X-15.0700 Y7.3087 
G01 X-14.9339 Y7.1213 
G01 X-14.8287 Y6.9149 
G01 X-14.7571 Y6.6946 
G01 X-14.7209 Y6.4658 
G01 X-14.7209 Y6.2342 
G01 X-14.7571 Y6.0054 
G01 X-14.8287 Y5.7851 
G01 X-14.9339 Y5.5787 
G01 X-15.0700 Y5.3913 
G01 X-15.2338 Y5.2275 
G01 X-15.4212 Y5.0914 
G01 X-15.6276 Y4.9862 
G01 X-15.8479 Y4.9146 
G01 X-16.0767 Y4.8784 
G01 X-16.3083 Y4.8784 
G01 X-16.5371 Y4.9146 
G01 X-16.7574 Y4.9862 
G01 X-16.9638 Y5.0914 
G01 X-17.1512 Y5.2275 
G01 X-17.3150 Y5.3913 
G01 X-17.4511 Y5.5787 
G01 X-17.5563 Y5.7851 
G01 X-17.6279 Y6.0054 
G01 X-17.6641 Y6.2342 
G01 X-17.6641 Y6.4658 
G01 X-17.6279 Y6.6946 
G01 X-17.5563 Y6.9149 
G01 X-17.4511 Y7.1213 
G01 X-17.4228 Y7.1603 
G01 X-17.4228 Y10.9172 
G01 X-22.8870 Y10.9172 
G01 X-22.9417 Y10.8625 
G01 X-23.1032 Y10.7452 
G01 X-23.2811 Y10.6545 
G01 X-23.4710 Y10.5928 
G01 X-23.6682 Y10.5616 
G01 X-25.3918 Y10.5616 
G01 X-25.5890 Y10.5928 
G01 X-25.7789 Y10.6545 
G01 X-25.9568 Y10.7452 
G01 X-26.1183 Y10.8625 
G01 X-26.2595 Y11.0037 
G01 X-26.3768 Y11.1652 
G01 X-26.4675 Y11.3431 
G01 X-26.5292 Y11.5330 
G01 X-26.5604 Y11.7302 
G01 X-26.5604 Y11.9298 
G01 X-26.5292 Y12.1270 
G01 X-26.4675 Y12.3169 
G01 X-26.3768 Y12.4948 
G01 X-26.2595 Y12.6563 
G01 X-26.1183 Y12.7975 
G01 X-25.9568 Y12.9148 
G01 X-25.7789 Y13.0055 
G01 X-25.5890 Y13.0672 
G01 X-25.3918 Y13.0984 
G01 X-23.6682 Y13.0984 
G01 X-23.4710 Y13.0672 
G01 X-23.2811 Y13.0055 
G01 X-23.1032 Y12.9148 
G01 X-22.9417 Y12.7975 
G01 X-22.8870 Y12.7428 
G01 X-14.5831 Y12.7428 
G01 X-12.9778 Y14.3481 
G01 X-12.9778 Y15.3542 
G01 X-13.0237 Y15.3875 
G01 X-13.1875 Y15.5513 
G01 X-13.3236 Y15.7387 
G01 X-13.3350 Y15.7610 
G01 X-13.3464 Y15.7387 
G01 X-13.4825 Y15.5513 
G01 X-13.6463 Y15.3875 
G01 X-13.8337 Y15.2514 
G01 X-14.0401 Y15.1462 
G01 X-14.2604 Y15.0746 
G01 X-14.4892 Y15.0384 
G01 X-14.7208 Y15.0384 
G01 X-14.9496 Y15.0746 
G01 X-15.1699 Y15.1462 
G01 X-15.3763 Y15.2514 
G01 X-15.5637 Y15.3875 
G01 X-15.7275 Y15.5513 
G01 X-15.8636 Y15.7387 
G01 X-15.8750 Y15.7610 
G01 X-15.8864 Y15.7387 
G01 X-16.0225 Y15.5513 
G01 X-16.1863 Y15.3875 
G01 X-16.3737 Y15.2514 
G01 X-16.5801 Y15.1462 
G01 X-16.8004 Y15.0746 
G01 X-17.0292 Y15.0384 
G01 X-17.2608 Y15.0384 
G01 X-17.4896 Y15.0746 
G01 X-17.7099 Y15.1462 
G01 X-17.9163 Y15.2514 
G01 X-18.1037 Y15.3875 
G01 X-18.2675 Y15.5513 
G01 X-18.4036 Y15.7387 
G01 X-18.5088 Y15.9451 
G01 X-18.5804 Y16.1654 
G01 X-18.6166 Y16.3942 
G01 X-18.6166 Y16.6258 
G01 X-18.5804 Y16.8546 
G01 X-18.5088 Y17.0749 
G01 X-18.4036 Y17.2813 
G01 X-18.2675 Y17.4687 
G01 X-18.1037 Y17.6325 
G01 X-18.0578 Y17.6658 
G01 X-18.0578 Y17.7194 
G01 X-18.8756 Y18.5372 
G01 X-22.8870 Y18.5372 
G01 X-22.9417 Y18.4825 
G01 X-23.1032 Y18.3652 
G01 X-23.2811 Y18.2745 
G01 X-23.4710 Y18.2128 
G01 X-23.6682 Y18.1816 
G01 X-25.3918 Y18.1816 
G01 X-25.5890 Y18.2128 
G01 X-25.7789 Y18.2745 
G01 X-25.9568 Y18.3652 
G01 X-26.1183 Y18.4825 
G01 X-26.2595 Y18.6237 
G01 X-26.3768 Y18.7852 
G01 X-26.4675 Y18.9631 
G01 X-26.5292 Y19.1530 
G01 X-26.5604 Y19.3502 
G01 X-26.5604 Y19.5498 
G01 X-26.5292 Y19.7470 
G01 X-26.4675 Y19.9369 
G01 X-26.3768 Y20.1148 
G01 X-26.2595 Y20.2763 
G01 X-26.1183 Y20.4175 
G01 X-25.9568 Y20.5348 
G01 X-25.7789 Y20.6255 
G01 X-25.5890 Y20.6872 
G01 X-25.3918 Y20.7184 
G01 X-23.6682 Y20.7184 
G01 X-23.4710 Y20.6872 
G01 X-23.2811 Y20.6255 
G01 X-23.1032 Y20.5348 
G01 X-22.9417 Y20.4175 
G01 X-22.8870 Y20.3628 
G01 X-18.4076 Y20.3628 
G01 X-18.2312 Y20.3277 
G01 X-18.0651 Y20.2589 
G01 X-17.9156 Y20.1590 
G01 X-17.7885 Y20.0319 
G01 X-16.5631 Y18.8065 
G01 X-16.4360 Y18.6794 
G01 X-16.3361 Y18.5299 
G01 X-16.2673 Y18.3638 
G01 X-16.2322 Y18.1874 
G01 X-16.2322 Y17.6658 
G01 X-16.1863 Y17.6325 
G01 X-16.0225 Y17.4687 
G01 X-15.8864 Y17.2813 
G01 X-15.8750 Y17.2590 
G01 X-15.8636 Y17.2813 
G01 X-15.7275 Y17.4687 
G01 X-15.5637 Y17.6325 
G01 X-15.5178 Y17.6658 
G01 X-15.5178 Y19.3069 
G01 X-17.2881 Y21.0772 
G01 X-22.8870 Y21.0772 
G01 X-22.9417 Y21.0225 
G01 X-23.1032 Y20.9052 
G01 X-23.2811 Y20.8145 
G01 X-23.4710 Y20.7528 
G01 X-23.6682 Y20.7216 
G01 X-25.3918 Y20.7216 
G01 X-25.5890 Y20.7528 
G01 X-25.7789 Y20.8145 
G01 X-25.9568 Y20.9052 
G01 X-26.1183 Y21.0225 
G01 X-26.2595 Y21.1637 
G01 X-26.3768 Y21.3252 
G01 X-26.4675 Y21.5031 
G01 X-26.5292 Y21.6930 
G01 X-26.5604 Y21.8902 
G01 X-26.5604 Y22.0898 
G01 X-26.5292 Y22.2870 
G01 X-26.4675 Y22.4769 
G01 X-26.3768 Y22.6548 
G01 X-26.2595 Y22.8163 
G01 X-26.1183 Y22.9575 
G01 X-25.9568 Y23.0748 
G01 X-25.7789 Y23.1655 
G01 X-25.5890 Y23.2272 
G01 X-25.3918 Y23.2584 
G01 X-23.6682 Y23.2584 
G01 X-23.4710 Y23.2272 
G01 X-23.2811 Y23.1655 
G01 X-23.1032 Y23.0748 
G01 X-22.9417 Y22.9575 
G01 X-22.8870 Y22.9028 
G01 X-16.8201 Y22.9028 
G01 X-16.6437 Y22.8677 
G01 X-16.4776 Y22.7989 
G01 X-16.3281 Y22.6990 
G01 X-14.0231 Y20.3940 
G01 X-13.8960 Y20.2669 
G01 X-13.7961 Y20.1174 
G01 X-13.7273 Y19.9513 
G01 X-13.6922 Y19.7749 
G01 X-13.6922 Y17.6658 
G01 X-13.6463 Y17.6325 
G01 X-13.4825 Y17.4687 
G01 X-13.3464 Y17.2813 
G01 X-13.3350 Y17.2590 
G01 X-13.3236 Y17.2813 
G01 X-13.1875 Y17.4687 
G01 X-13.0237 Y17.6325 
G01 X-12.8363 Y17.7686 
G01 X-12.6299 Y17.8738 
G01 X-12.4096 Y17.9454 
G01 X-12.1808 Y17.9816 
G01 X-11.9492 Y17.9816 
G01 X-11.7204 Y17.9454 
G01 X-11.5001 Y17.8738 
G01 X-11.2937 Y17.7686 
G01 X-11.1063 Y17.6325 
G01 X-10.9425 Y17.4687 
G01 X-10.8064 Y17.2813 
G01 X-10.7950 Y17.2590 
G01 X-10.7836 Y17.2813 
G01 X-10.6475 Y17.4687 
G01 X-10.4837 Y17.6325 
G01 X-10.2963 Y17.7686 
G01 X-10.0899 Y17.8738 
G01 X-9.8696 Y17.9454 
G01 X-9.6408 Y17.9816 
G01 X-9.4092 Y17.9816 
G01 X-9.1804 Y17.9454 
G01 X-8.9601 Y17.8738 
G01 X-8.7537 Y17.7686 
G01 X-8.5663 Y17.6325 
G01 X-8.4025 Y17.4687 
G01 X-8.2664 Y17.2813 
G01 X-8.1612 Y17.0749 
G01 X-8.0896 Y16.8546 
G01 X-8.0534 Y16.6258 
G01 X-8.0534 Y16.3942 
G01 X-8.0896 Y16.1654 
G01 X-8.1612 Y15.9451 
G01 X-8.2664 Y15.7387 
G01 X-8.4025 Y15.5513 
G01 X-8.5663 Y15.3875 
G01 X-8.6122 Y15.3542 
G01 X-8.6122 Y11.8081 
G01 X-7.0069 Y10.2028 
G01 X-3.3130 Y10.2028 
G01 X-3.2583 Y10.2575 
G01 X-3.0968 Y10.3748 
G01 X-2.9189 Y10.4655 
G01 X-2.7290 Y10.5272 
G01 X-2.5318 Y10.5584 
G01 X-0.8082 Y10.5584 
G01 X-0.6110 Y10.5272 
G01 X-0.4211 Y10.4655 
G01 X-0.2432 Y10.3748 
G01 X-0.0817 Y10.2575 
G01 X0.0595 Y10.1163 
G01 X0.1768 Y9.9548 
G01 X0.2675 Y9.7769 
G01 X0.3292 Y9.5870 
G01 X0.3604 Y9.3898 
G01 X0.3604 Y9.1902 
G01 X0.3292 Y8.9930 
G01 X0.2675 Y8.8031 
G01 X0.1768 Y8.6252 
G01 X0.0595 Y8.4637 
G01 X-0.0817 Y8.3225 
G00 Z2.5400 
G00 X-0.0817 Y10.8625 
G01 Z-0.2540 F254.00 
G01 X-0.2432 Y10.7452 F508.00 
G01 X-0.4211 Y10.6545 
G01 X-0.6110 Y10.5928 
G01 X-0.8082 Y10.5616 
G01 X-2.5318 Y10.5616 
G01 X-2.7290 Y10.5928 
G01 X-2.9189 Y10.6545 
G01 X-3.0968 Y10.7452 
G01 X-3.2583 Y10.8625 
G01 X-3.3995 Y11.0037 
G01 X-3.5168 Y11.1652 
G01 X-3.6075 Y11.3431 
G01 X-3.6692 Y11.5330 
G01 X-3.7004 Y11.7302 
G01 X-3.7004 Y11.9298 
G01 X-3.6692 Y12.1270 
G01 X-3.6075 Y12.3169 
G01 X-3.5168 Y12.4948 
G01 X-3.3995 Y12.6563 
G01 X-3.2583 Y12.7975 
G01 X-3.0968 Y12.9148 
G01 X-2.9189 Y13.0055 
G01 X-2.7290 Y13.0672 
G01 X-2.5318 Y13.0984 
G01 X-0.8082 Y13.0984 
G01 X-0.6110 Y13.0672 
G01 X-0.4211 Y13.0055 
G01 X-0.2432 Y12.9148 
G01 X-0.0817 Y12.7975 
G01 X0.0595 Y12.6563 
G01 X0.1768 Y12.4948 
G01 X0.2675 Y12.3169 
G01 X0.3292 Y12.1270 
G01 X0.3604 Y11.9298 
G01 X0.3604 Y11.7302 
G01 X0.3292 Y11.5330 
G01 X0.2675 Y11.3431 
G01 X0.1768 Y11.1652 
G01 X0.0595 Y11.0037 
G01 X-0.0817 Y10.8625 
G00 Z2.5400 
G00 X-0.0817 Y13.4025 
G01 Z-0.2540 F254.00 
G01 X-0.2432 Y13.2852 F508.00 
G01 X-0.4211 Y13.1945 
G01 X-0.6110 Y13.1328 
G01 X-0.8082 Y13.1016 
G01 X-2.5318 Y13.1016 
G01 X-2.7290 Y13.1328 
G01 X-2.9189 Y13.1945 
G01 X-3.0968 Y13.2852 
G01 X-3.2583 Y13.4025 
G01 X-3.3995 Y13.5437 
G01 X-3.5168 Y13.7052 
G01 X-3.6075 Y13.8831 
G01 X-3.6692 Y14.0730 
G01 X-3.7004 Y14.2702 
G01 X-3.7004 Y14.4698 
G01 X-3.6692 Y14.6670 
G01 X-3.6075 Y14.8569 
G01 X-3.5168 Y15.0348 
G01 X-3.3995 Y15.1963 
G01 X-3.2583 Y15.3375 
G01 X-3.0968 Y15.4548 
G01 X-2.9189 Y15.5455 
G01 X-2.7290 Y15.6072 
G01 X-2.5318 Y15.6384 
G01 X-0.8082 Y15.6384 
G01 X-0.6110 Y15.6072 
G01 X-0.4211 Y15.5455 
G01 X-0.2432 Y15.4548 
G01 X-0.0817 Y15.3375 
G01 X0.0595 Y15.1963 
G01 X0.1768 Y15.0348 
G01 X0.2675 Y14.8569 
G01 X0.3292 Y14.6670 
G01 X0.3604 Y14.4698 
G01 X0.3604 Y14.2702 
G01 X0.3292 Y14.0730 
G01 X0.2675 Y13.8831 
G01 X0.1768 Y13.7052 
G01 X0.0595 Y13.5437 
G01 X-0.0817 Y13.4025 
G00 Z2.5400 
G00 X-0.0817 Y15.9425 
G01 Z-0.2540 F254.00 
G01 X-0.2432 Y15.8252 F508.00 
G01 X-0.4211 Y15.7345 
G01 X-0.6110 Y15.6728 
G01 X-0.8082 Y15.6416 
G01 X-2.5318 Y15.6416 
G01 X-2.7290 Y15.6728 
G01 X-2.9189 Y15.7345 
G01 X-3.0968 Y15.8252 
G01 X-3.2583 Y15.9425 
G01 X-3.3995 Y16.0837 
G01 X-3.5168 Y16.2452 
G01 X-3.6075 Y16.4231 
G01 X-3.6692 Y16.6130 
G01 X-3.7004 Y16.8102 
G01 X-3.7004 Y17.0098 
G01 X-3.6692 Y17.2070 
G01 X-3.6075 Y17.3969 
G01 X-3.5168 Y17.5748 
G01 X-3.3995 Y17.7363 
G01 X-3.2583 Y17.8775 
G01 X-3.0968 Y17.9948 
G01 X-2.9189 Y18.0855 
G01 X-2.7290 Y18.1472 
G01 X-2.5318 Y18.1784 
G01 X-0.8082 Y18.1784 
G01 X-0.6110 Y18.1472 
G01 X-0.4211 Y18.0855 
G01 X-0.2432 Y17.9948 
G01 X-0.0817 Y17.8775 
G01 X0.0595 Y17.7363 
G01 X0.1768 Y17.5748 
G01 X0.2675 Y17.3969 
G01 X0.3292 Y17.2070 
G01 X0.3604 Y17.0098 
G01 X0.3604 Y16.8102 
G01 X0.3292 Y16.6130 
G01 X0.2675 Y16.4231 
G01 X0.1768 Y16.2452 
G01 X0.0595 Y16.0837 
G01 X-0.0817 Y15.9425 
G00 Z2.5400 
G00 X-0.0817 Y18.4825 
G01 Z-0.2540 F254.00 
G01 X-0.2432 Y18.3652 F508.00 
G01 X-0.4211 Y18.2745 
G01 X-0.6110 Y18.2128 
G01 X-0.8082 Y18.1816 
G01 X-2.5318 Y18.1816 
G01 X-2.7290 Y18.2128 
G01 X-2.9189 Y18.2745 
G01 X-3.0968 Y18.3652 
G01 X-3.2583 Y18.4825 
G01 X-3.3995 Y18.6237 
G01 X-3.5168 Y18.7852 
G01 X-3.6075 Y18.9631 
G01 X-3.6692 Y19.1530 
G01 X-3.7004 Y19.3502 
G01 X-3.7004 Y19.5498 
G01 X-3.6692 Y19.7470 
G01 X-3.6075 Y19.9369 
G01 X-3.5168 Y20.1148 
G01 X-3.3995 Y20.2763 
G01 X-3.2583 Y20.4175 
G01 X-3.0968 Y20.5348 
G01 X-2.9189 Y20.6255 
G01 X-2.7290 Y20.6872 
G01 X-2.5318 Y20.7184 
G01 X-0.8082 Y20.7184 
G01 X-0.6110 Y20.6872 
G01 X-0.4211 Y20.6255 
G01 X-0.2432 Y20.5348 
G01 X-0.0817 Y20.4175 
G01 X0.0595 Y20.2763 
G01 X0.1768 Y20.1148 
G01 X0.2675 Y19.9369 
G01 X0.3292 Y19.7470 
G01 X0.3604 Y19.5498 
G01 X0.3604 Y19.3502 
G01 X0.3292 Y19.1530 
G01 X0.2675 Y18.9631 
G01 X0.1768 Y18.7852 
G01 X0.0595 Y18.6237 
G01 X-0.0817 Y18.4825 
G00 Z2.5400 
G00 X-0.0817 Y21.0225 
G01 Z-0.2540 F254.00 
G01 X-0.2432 Y20.9052 F508.00 
G01 X-0.4211 Y20.8145 
G01 X-0.6110 Y20.7528 
G01 X-0.8082 Y20.7216 
G01 X-2.5318 Y20.7216 
G01 X-2.7290 Y20.7528 
G01 X-2.9189 Y20.8145 
G01 X-3.0968 Y20.9052 
G01 X-3.2583 Y21.0225 
G01 X-3.3995 Y21.1637 
G01 X-3.5168 Y21.3252 
G01 X-3.6075 Y21.5031 
G01 X-3.6692 Y21.6930 
G01 X-3.7004 Y21.8902 
G01 X-3.7004 Y22.0898 
G01 X-3.6692 Y22.2870 
G01 X-3.6075 Y22.4769 
G01 X-3.5168 Y22.6548 
G01 X-3.3995 Y22.8163 
G01 X-3.2583 Y22.9575 
G01 X-3.0968 Y23.0748 
G01 X-2.9189 Y23.1655 
G01 X-2.7290 Y23.2272 
G01 X-2.5318 Y23.2584 
G01 X-0.8082 Y23.2584 
G01 X-0.6110 Y23.2272 
G01 X-0.4211 Y23.1655 
G01 X-0.2432 Y23.0748 
G01 X-0.0817 Y22.9575 
G01 X0.0595 Y22.8163 
G01 X0.1768 Y22.6548 
G01 X0.2675 Y22.4769 
G01 X0.3292 Y22.2870 
G01 X0.3604 Y22.0898 
G01 X0.3604 Y21.8902 
G01 X0.3292 Y21.6930 
G01 X0.2675 Y21.5031 
G01 X0.1768 Y21.3252 
G01 X0.0595 Y21.1637 
G01 X-0.0817 Y21.0225 
G00 Z2.5400 
G00 X-0.0817 Y23.5625 
G01 Z-0.2540 F254.00 
G01 X-0.2432 Y23.4452 F508.00 
G01 X-0.4211 Y23.3545 
G01 X-0.6110 Y23.2928 
G01 X-0.8082 Y23.2616 
G01 X-2.5318 Y23.2616 
G01 X-2.7290 Y23.2928 
G01 X-2.9189 Y23.3545 
G01 X-3.0968 Y23.4452 
G01 X-3.2583 Y23.5625 
G01 X-3.3995 Y23.7037 
G01 X-3.5168 Y23.8652 
G01 X-3.6075 Y24.0431 
G01 X-3.6692 Y24.2330 
G01 X-3.7004 Y24.4302 
G01 X-3.7004 Y24.6298 
G01 X-3.6692 Y24.8270 
G01 X-3.6075 Y25.0169 
G01 X-3.5168 Y25.1948 
G01 X-3.3995 Y25.3563 
G01 X-3.2583 Y25.4975 
G01 X-3.0968 Y25.6148 
G01 X-2.9189 Y25.7055 
G01 X-2.7290 Y25.7672 
G01 X-2.5318 Y25.7984 
G01 X-0.8082 Y25.7984 
G01 X-0.6110 Y25.7672 
G01 X-0.4211 Y25.7055 
G01 X-0.2432 Y25.6148 
G01 X-0.0817 Y25.4975 
G01 X0.0595 Y25.3563 
G01 X0.1768 Y25.1948 
G01 X0.2675 Y25.0169 
G01 X0.3292 Y24.8270 
G01 X0.3604 Y24.6298 
G01 X0.3604 Y24.4302 
G01 X0.3292 Y24.2330 
G01 X0.2675 Y24.0431 
G01 X0.1768 Y23.8652 
G01 X0.0595 Y23.7037 
G01 X-0.0817 Y23.5625 
G00 Z2.5400 
G00 X-0.0817 Y26.1025 
G01 Z-0.2540 F254.00 
G01 X-0.2432 Y25.9852 F508.00 
G01 X-0.4211 Y25.8945 
G01 X-0.6110 Y25.8328 
G01 X-0.8082 Y25.8016 
G01 X-2.5318 Y25.8016 
G01 X-2.7290 Y25.8328 
G01 X-2.9189 Y25.8945 
G01 X-3.0968 Y25.9852 
G01 X-3.2583 Y26.1025 
G01 X-3.3995 Y26.2437 
G01 X-3.5168 Y26.4052 
G01 X-3.6075 Y26.5831 
G01 X-3.6692 Y26.7730 
G01 X-3.7004 Y26.9702 
G01 X-3.7004 Y27.1698 
G01 X-3.6692 Y27.3670 
G01 X-3.6075 Y27.5569 
G01 X-3.5168 Y27.7348 
G01 X-3.3995 Y27.8963 
G01 X-3.2583 Y28.0375 
G01 X-3.0968 Y28.1548 
G01 X-2.9189 Y28.2455 
G01 X-2.7290 Y28.3072 
G01 X-2.5318 Y28.3384 
G01 X-0.8082 Y28.3384 
G01 X-0.6110 Y28.3072 
G01 X-0.4211 Y28.2455 
G01 X-0.2432 Y28.1548 
G01 X-0.0817 Y28.0375 
G01 X0.0595 Y27.8963 
G01 X0.1768 Y27.7348 
G01 X0.2675 Y27.5569 
G01 X0.3292 Y27.3670 
G01 X0.3604 Y27.1698 
G01 X0.3604 Y26.9702 
G01 X0.3292 Y26.7730 
G01 X0.2675 Y26.5831 
G01 X0.1768 Y26.4052 
G01 X0.0595 Y26.2437 
G01 X-0.0817 Y26.1025 
G00 Z2.5400 
G00 X-22.8005 Y26.2437 
G01 Z-0.2540 F254.00 
G01 X-22.9417 Y26.1025 F508.00 
G01 X-23.1032 Y25.9852 
G01 X-23.2811 Y25.8945 
G01 X-23.4710 Y25.8328 
G01 X-23.6682 Y25.8016 
G01 X-25.3918 Y25.8016 
G01 X-25.5890 Y25.8328 
G01 X-25.7789 Y25.8945 
G01 X-25.9568 Y25.9852 
G01 X-26.1183 Y26.1025 
G01 X-26.2595 Y26.2437 
G01 X-26.3768 Y26.4052 
G01 X-26.4675 Y26.5831 
G01 X-26.5292 Y26.7730 
G01 X-26.5604 Y26.9702 
G01 X-26.5604 Y27.1698 
G01 X-26.5292 Y27.3670 
G01 X-26.4675 Y27.5569 
G01 X-26.3768 Y27.7348 
G01 X-26.2595 Y27.8963 
G01 X-26.1183 Y28.0375 
G01 X-25.9568 Y28.1548 
G01 X-25.7789 Y28.2455 
G01 X-25.5890 Y28.3072 
G01 X-25.3918 Y28.3384 
G01 X-23.6682 Y28.3384 
G01 X-23.4710 Y28.3072 
G01 X-23.2811 Y28.2455 
G01 X-23.1032 Y28.1548 
G01 X-22.9417 Y28.0375 
G01 X-22.8005 Y27.8963 
G01 X-22.6832 Y27.7348 
G01 X-22.5925 Y27.5569 
G01 X-22.5308 Y27.3670 
G01 X-22.4996 Y27.1698 
G01 X-22.4996 Y26.9702 
G01 X-22.5308 Y26.7730 
G01 X-22.5925 Y26.5831 
G01 X-22.6832 Y26.4052 
G01 X-22.8005 Y26.2437 
G00 Z2.5400 
G00 X-22.9417 Y25.4975 
G01 Z-0.2540 F254.00 
G01 X-22.8005 Y25.3563 F508.00 
G01 X-22.6832 Y25.1948 
G01 X-22.5925 Y25.0169 
G01 X-22.5308 Y24.8270 
G01 X-22.4996 Y24.6298 
G01 X-22.4996 Y24.4302 
G01 X-22.5308 Y24.2330 
G01 X-22.5925 Y24.0431 
G01 X-22.6832 Y23.8652 
G01 X-22.8005 Y23.7037 
G01 X-22.9417 Y23.5625 
G01 X-23.1032 Y23.4452 
G01 X-23.2811 Y23.3545 
G01 X-23.4710 Y23.2928 
G01 X-23.6682 Y23.2616 
G01 X-25.3918 Y23.2616 
G01 X-25.5890 Y23.2928 
G01 X-25.7789 Y23.3545 
G01 X-25.9568 Y23.4452 
G01 X-26.1183 Y23.5625 
G01 X-26.2595 Y23.7037 
G01 X-26.3768 Y23.8652 
G01 X-26.4675 Y24.0431 
G01 X-26.5292 Y24.2330 
G01 X-26.5604 Y24.4302 
G01 X-26.5604 Y24.6298 
G01 X-26.5292 Y24.8270 
G01 X-26.4675 Y25.0169 
G01 X-26.3768 Y25.1948 
G01 X-26.2595 Y25.3563 
G01 X-26.1183 Y25.4975 
G01 X-25.9568 Y25.6148 
G01 X-25.7789 Y25.7055 
G01 X-25.5890 Y25.7672 
G01 X-25.3918 Y25.7984 
G01 X-23.6682 Y25.7984 
G01 X-23.4710 Y25.7672 
G01 X-23.2811 Y25.7055 
G01 X-23.1032 Y25.6148 
G01 X-22.9417 Y25.4975 
G00 Z2.5400 
G00 X-22.9417 Y17.8775 
G01 Z-0.2540 F254.00 
G01 X-22.8005 Y17.7363 F508.00 
G01 X-22.6832 Y17.5748 
G01 X-22.5925 Y17.3969 
G01 X-22.5308 Y17.2070 
G01 X-22.4996 Y17.0098 
G01 X-22.4996 Y16.8102 
G01 X-22.5308 Y16.6130 
G01 X-22.5925 Y16.4231 
G01 X-22.6832 Y16.2452 
G01 X-22.8005 Y16.0837 
G01 X-22.9417 Y15.9425 
G01 X-23.1032 Y15.8252 
G01 X-23.2811 Y15.7345 
G01 X-23.4710 Y15.6728 
G01 X-23.6682 Y15.6416 
G01 X-25.3918 Y15.6416 
G01 X-25.5890 Y15.6728 
G01 X-25.7789 Y15.7345 
G01 X-25.9568 Y15.8252 
G01 X-26.1183 Y15.9425 
G01 X-26.2595 Y16.0837 
G01 X-26.3768 Y16.2452 
G01 X-26.4675 Y16.4231 
G01 X-26.5292 Y16.6130 
G01 X-26.5604 Y16.8102 
G01 X-26.5604 Y17.0098 
G01 X-26.5292 Y17.2070 
G01 X-26.4675 Y17.3969 
G01 X-26.3768 Y17.5748 
G01 X-26.2595 Y17.7363 
G01 X-26.1183 Y17.8775 
G01 X-25.9568 Y17.9948 
G01 X-25.7789 Y18.0855 
G01 X-25.5890 Y18.1472 
G01 X-25.3918 Y18.1784 
G01 X-23.6682 Y18.1784 
G01 X-23.4710 Y18.1472 
G01 X-23.2811 Y18.0855 
G01 X-23.1032 Y17.9948 
G01 X-22.9417 Y17.8775 
G00 Z2.5400 
G00 X-22.9417 Y15.3375 
G01 Z-0.2540 F254.00 
G01 X-22.8005 Y15.1963 F508.00 
G01 X-22.6832 Y15.0348 
G01 X-22.5925 Y14.8569 
G01 X-22.5308 Y14.6670 
G01 X-22.4996 Y14.4698 
G01 X-22.4996 Y14.2702 
G01 X-22.5308 Y14.0730 
G01 X-22.5925 Y13.8831 
G01 X-22.6832 Y13.7052 
G01 X-22.8005 Y13.5437 
G01 X-22.9417 Y13.4025 
G01 X-23.1032 Y13.2852 
G01 X-23.2811 Y13.1945 
G01 X-23.4710 Y13.1328 
G01 X-23.6682 Y13.1016 
G01 X-25.3918 Y13.1016 
G01 X-25.5890 Y13.1328 
G01 X-25.7789 Y13.1945 
G01 X-25.9568 Y13.2852 
G01 X-26.1183 Y13.4025 
G01 X-26.2595 Y13.5437 
G01 X-26.3768 Y13.7052 
G01 X-26.4675 Y13.8831 
G01 X-26.5292 Y14.0730 
G01 X-26.5604 Y14.2702 
G01 X-26.5604 Y14.4698 
G01 X-26.5292 Y14.6670 
G01 X-26.4675 Y14.8569 
G01 X-26.3768 Y15.0348 
G01 X-26.2595 Y15.1963 
G01 X-26.1183 Y15.3375 
G01 X-25.9568 Y15.4548 
G01 X-25.7789 Y15.5455 
G01 X-25.5890 Y15.6072 
G01 X-25.3918 Y15.6384 
G01 X-23.6682 Y15.6384 
G01 X-23.4710 Y15.6072 
G01 X-23.2811 Y15.5455 
G01 X-23.1032 Y15.4548 
G01 X-22.9417 Y15.3375 
G00 Z2.5400 
G00 X-22.9417 Y10.2575 
G01 Z-0.2540 F254.00 
G01 X-22.8005 Y10.1163 F508.00 
G01 X-22.6832 Y9.9548 
G01 X-22.5925 Y9.7769 
G01 X-22.5308 Y9.5870 
G01 X-22.4996 Y9.3898 
G01 X-22.4996 Y9.1902 
G01 X-22.5308 Y8.9930 
G01 X-22.5925 Y8.8031 
G01 X-22.6832 Y8.6252 
G01 X-22.8005 Y8.4637 
G01 X-22.9417 Y8.3225 
G01 X-23.1032 Y8.2052 
G01 X-23.2811 Y8.1145 
G01 X-23.4710 Y8.0528 
G01 X-23.6682 Y8.0216 
G01 X-25.3918 Y8.0216 
G01 X-25.5890 Y8.0528 
G01 X-25.7789 Y8.1145 
G01 X-25.9568 Y8.2052 
G01 X-26.1183 Y8.3225 
G01 X-26.2595 Y8.4637 
G01 X-26.3768 Y8.6252 
G01 X-26.4675 Y8.8031 
G01 X-26.5292 Y8.9930 
G01 X-26.5604 Y9.1902 
G01 X-26.5604 Y9.3898 
G01 X-26.5292 Y9.5870 
G01 X-26.4675 Y9.7769 
G01 X-26.3768 Y9.9548 
G01 X-26.2595 Y10.1163 
G01 X-26.1183 Y10.2575 
G01 X-25.9568 Y10.3748 
G01 X-25.7789 Y10.4655 
G01 X-25.5890 Y10.5272 
G01 X-25.3918 Y10.5584 
G01 X-23.6682 Y10.5584 
G01 X-23.4710 Y10.5272 
G01 X-23.2811 Y10.4655 
G01 X-23.1032 Y10.3748 
G01 X-22.9417 Y10.2575 
G00 Z2.5400 
G00 X0.4074 Y-0.4074 
G01 Z-0.2540 F254.00 
G01 X0.4074 Y8.8228 F508.00 
G01 X0.3852 Y8.7544 
G01 X0.2854 Y8.5587 
G01 X0.1563 Y8.3810 
G01 X0.0010 Y8.2256 
G01 X-0.1767 Y8.0965 
G01 X-0.3724 Y7.9968 
G01 X-0.5812 Y7.9290 
G01 X-0.7982 Y7.8946 
G01 X-2.5418 Y7.8946 
G01 X-2.7588 Y7.9290 
G01 X-2.9676 Y7.9968 
G01 X-3.1633 Y8.0965 
G01 X-3.3410 Y8.2256 
G01 X-3.3656 Y8.2502 
G01 X-6.9543 Y8.2502 
G01 X-9.6476 Y5.5569 
G01 X-9.7800 Y5.4607 
G01 X-9.7842 Y5.4586 
G01 X-9.8932 Y5.3086 
G01 X-10.0711 Y5.1307 
G01 X-10.2746 Y4.9828 
G01 X-10.4988 Y4.8685 
G01 X-10.7382 Y4.7908 
G01 X-10.9867 Y4.7514 
G01 X-11.2383 Y4.7514 
G01 X-11.4868 Y4.7908 
G01 X-11.7261 Y4.8685 
G01 X-11.9503 Y4.9828 
G01 X-12.1539 Y5.1307 
G01 X-12.3318 Y5.3086 
G01 X-12.4797 Y5.5122 
G01 X-12.5940 Y5.7363 
G01 X-12.6717 Y5.9757 
G01 X-12.7111 Y6.2242 
G01 X-12.7111 Y6.4758 
G01 X-12.6717 Y6.7243 
G01 X-12.5940 Y6.9636 
G01 X-12.4797 Y7.1878 
G01 X-12.3318 Y7.3914 
G01 X-12.1539 Y7.5693 
G01 X-11.9503 Y7.7172 
G01 X-11.7261 Y7.8315 
G01 X-11.4868 Y7.9092 
G01 X-11.2383 Y7.9486 
G01 X-10.9867 Y7.9486 
G01 X-10.7382 Y7.9092 
G01 X-10.4988 Y7.8315 
G01 X-10.3764 Y7.7691 
G01 X-8.8555 Y9.2900 
G01 X-10.2024 Y10.6369 
G01 X-10.3181 Y10.7526 
G01 X-10.4143 Y10.8850 
G01 X-10.4886 Y11.0309 
G01 X-10.5392 Y11.1865 
G01 X-10.5648 Y11.3482 
G01 X-10.5648 Y15.2895 
G01 X-10.7443 Y15.4686 
G01 X-10.7950 Y15.5383 
G01 X-10.8457 Y15.4686 
G01 X-11.0236 Y15.2907 
G01 X-11.0252 Y13.8882 
G01 X-11.0508 Y13.7265 
G01 X-11.1014 Y13.5709 
G01 X-11.1757 Y13.4250 
G01 X-11.2719 Y13.2926 
G01 X-11.3876 Y13.1769 
G01 X-13.5276 Y11.0369 
G01 X-13.6600 Y10.9407 
G01 X-13.8059 Y10.8664 
G01 X-13.9615 Y10.8158 
G01 X-14.1232 Y10.7902 
G01 X-15.4702 Y10.7902 
G01 X-15.4702 Y7.7761 
G01 X-15.3546 Y7.7172 
G01 X-15.1511 Y7.5693 
G01 X-14.9732 Y7.3914 
G01 X-14.8253 Y7.1878 
G01 X-14.7110 Y6.9636 
G01 X-14.6333 Y6.7243 
G01 X-14.5939 Y6.4758 
G01 X-14.5939 Y6.2242 
G01 X-14.6333 Y5.9757 
G01 X-14.7110 Y5.7363 
G01 X-14.8253 Y5.5122 
G01 X-14.9732 Y5.3086 
G01 X-15.1511 Y5.1307 
G01 X-15.3546 Y4.9828 
G01 X-15.5788 Y4.8685 
G01 X-15.8182 Y4.7908 
G01 X-16.0667 Y4.7514 
G01 X-16.3183 Y4.7514 
G01 X-16.5668 Y4.7908 
G01 X-16.8061 Y4.8685 
G01 X-17.0303 Y4.9828 
G01 X-17.2339 Y5.1307 
G01 X-17.4118 Y5.3086 
G01 X-17.5597 Y5.5122 
G01 X-17.6740 Y5.7363 
G01 X-17.7517 Y5.9757 
G01 X-17.7911 Y6.2242 
G01 X-17.7911 Y6.4758 
G01 X-17.7517 Y6.7243 
G01 X-17.6740 Y6.9636 
G01 X-17.5597 Y7.1878 
G01 X-17.5498 Y7.2015 
G01 X-17.5498 Y10.7902 
G01 X-22.8344 Y10.7902 
G01 X-22.8590 Y10.7656 
G01 X-23.0367 Y10.6365 
G01 X-23.1869 Y10.5600 
G01 X-23.0367 Y10.4834 
G01 X-22.8590 Y10.3544 
G01 X-22.7036 Y10.1990 
G01 X-22.5745 Y10.0213 
G01 X-22.4748 Y9.8256 
G01 X-22.4070 Y9.6168 
G01 X-22.3726 Y9.3998 
G01 X-22.3726 Y9.1802 
G01 X-22.4070 Y8.9632 
G01 X-22.4748 Y8.7544 
G01 X-22.5745 Y8.5587 
G01 X-22.7036 Y8.3810 
G01 X-22.8590 Y8.2256 
G01 X-23.0367 Y8.0965 
G01 X-23.2324 Y7.9968 
G01 X-23.4412 Y7.9290 
G01 X-23.6582 Y7.8946 
G01 X-25.4018 Y7.8946 
G01 X-25.6188 Y7.9290 
G01 X-25.8276 Y7.9968 
G01 X-26.0233 Y8.0965 
G01 X-26.2010 Y8.2256 
G01 X-26.3563 Y8.3810 
G01 X-26.4855 Y8.5587 
G01 X-26.5852 Y8.7544 
G01 X-26.6074 Y8.8228 
G01 X-26.6074 Y-0.4074 
G01 X0.4074 Y-0.4074 
G00 Z2.5400 
G00 X0.4074 Y9.7572 
G01 Z-0.2540 F254.00 
G01 X0.4074 Y11.3628 F508.00 
G01 X0.3852 Y11.2943 
G01 X0.2854 Y11.0986 
G01 X0.1563 Y10.9210 
G01 X0.0010 Y10.7656 
G01 X-0.1767 Y10.6365 
G01 X-0.3269 Y10.5600 
G01 X-0.1767 Y10.4834 
G01 X0.0010 Y10.3544 
G01 X0.1563 Y10.1990 
G01 X0.2854 Y10.0213 
G01 X0.3852 Y9.8256 
G01 X0.4074 Y9.7572 
G00 Z2.5400 
G00 X0.4074 Y12.2972 
G01 Z-0.2540 F254.00 
G01 X0.4074 Y13.9028 F508.00 
G01 X0.3852 Y13.8344 
G01 X0.2854 Y13.6387 
G01 X0.1563 Y13.4610 
G01 X0.0010 Y13.3056 
G01 X-0.1767 Y13.1765 
G01 X-0.3269 Y13.1000 
G01 X-0.1767 Y13.0235 
G01 X0.0010 Y12.8943 
G01 X0.1563 Y12.7390 
G01 X0.2854 Y12.5613 
G01 X0.3852 Y12.3656 
G01 X0.4074 Y12.2972 
G00 Z2.5400 
G00 X0.4074 Y14.8372 
G01 Z-0.2540 F254.00 
G01 X0.4074 Y16.4428 F508.00 
G01 X0.3852 Y16.3743 
G01 X0.2854 Y16.1787 
G01 X0.1563 Y16.0010 
G01 X0.0010 Y15.8456 
G01 X-0.1767 Y15.7165 
G01 X-0.3269 Y15.6400 
G01 X-0.1767 Y15.5634 
G01 X0.0010 Y15.4344 
G01 X0.1563 Y15.2790 
G01 X0.2854 Y15.1013 
G01 X0.3852 Y14.9056 
G01 X0.4074 Y14.8372 
G00 Z2.5400 
G00 X0.4074 Y17.3772 
G01 Z-0.2540 F254.00 
G01 X0.4074 Y18.9828 F508.00 
G01 X0.3852 Y18.9143 
G01 X0.2854 Y18.7187 
G01 X0.1563 Y18.5410 
G01 X0.0010 Y18.3856 
G01 X-0.1767 Y18.2565 
G01 X-0.3269 Y18.1800 
G01 X-0.1767 Y18.1034 
G01 X0.0010 Y17.9744 
G01 X0.1563 Y17.8190 
G01 X0.2854 Y17.6413 
G01 X0.3852 Y17.4456 
G01 X0.4074 Y17.3772 
G00 Z2.5400 
G00 X0.4074 Y19.9172 
G01 Z-0.2540 F254.00 
G01 X0.4074 Y21.5228 F508.00 
G01 X0.3852 Y21.4544 
G01 X0.2854 Y21.2586 
G01 X0.1563 Y21.0810 
G01 X0.0010 Y20.9256 
G01 X-0.1767 Y20.7965 
G01 X-0.3269 Y20.7200 
G01 X-0.1767 Y20.6435 
G01 X0.0010 Y20.5144 
G01 X0.1563 Y20.3590 
G01 X0.2854 Y20.1813 
G01 X0.3852 Y19.9856 
G01 X0.4074 Y19.9172 
G00 Z2.5400 
G00 X0.4074 Y22.4572 
G01 Z-0.2540 F254.00 
G01 X0.4074 Y24.0628 F508.00 
G01 X0.3852 Y23.9944 
G01 X0.2854 Y23.7986 
G01 X0.1563 Y23.6210 
G01 X0.0010 Y23.4656 
G01 X-0.1767 Y23.3365 
G01 X-0.3269 Y23.2600 
G01 X-0.1767 Y23.1835 
G01 X0.0010 Y23.0543 
G01 X0.1563 Y22.8990 
G01 X0.2854 Y22.7213 
G01 X0.3852 Y22.5256 
G01 X0.4074 Y22.4572 
G00 Z2.5400 
G00 X0.4074 Y24.9972 
G01 Z-0.2540 F254.00 
G01 X0.4074 Y26.6028 F508.00 
G01 X0.3852 Y26.5343 
G01 X0.2854 Y26.3387 
G01 X0.1563 Y26.1610 
G01 X0.0010 Y26.0056 
G01 X-0.1767 Y25.8765 
G01 X-0.3269 Y25.8000 
G01 X-0.1767 Y25.7234 
G01 X0.0010 Y25.5943 
G01 X0.1563 Y25.4390 
G01 X0.2854 Y25.2613 
G01 X0.3852 Y25.0656 
G01 X0.4074 Y24.9972 
G00 Z2.5400 
G00 X-15.6448 Y19.2543 
G01 Z-0.2540 F254.00 
G01 X-17.3407 Y20.9502 F508.00 
G01 X-22.8344 Y20.9502 
G01 X-22.8590 Y20.9256 
G01 X-23.0367 Y20.7965 
G01 X-23.1869 Y20.7200 
G01 X-23.0367 Y20.6435 
G01 X-22.8590 Y20.5144 
G01 X-22.8344 Y20.4898 
G01 X-18.4157 Y20.4898 
G01 X-18.2540 Y20.4642 
G01 X-18.0984 Y20.4136 
G01 X-17.9525 Y20.3393 
G01 X-17.8201 Y20.2431 
G01 X-17.7044 Y20.1274 
G01 X-16.4676 Y18.8906 
G01 X-16.3519 Y18.7749 
G01 X-16.2557 Y18.6425 
G01 X-16.1814 Y18.4966 
G01 X-16.1308 Y18.3410 
G01 X-16.1052 Y18.1793 
G01 X-16.1052 Y17.7305 
G01 X-15.9257 Y17.5514 
G01 X-15.8750 Y17.4817 
G01 X-15.8243 Y17.5514 
G01 X-15.6464 Y17.7293 
G01 X-15.6448 Y19.2543 
G00 Z2.5400 
G00 X-15.8750 Y15.5383 
G01 Z-0.2540 F254.00 
G01 X-15.9257 Y15.4686 F508.00 
G01 X-16.1036 Y15.2907 
G01 X-16.3072 Y15.1428 
G01 X-16.5313 Y15.0285 
G01 X-16.7707 Y14.9508 
G01 X-17.0192 Y14.9114 
G01 X-17.2708 Y14.9114 
G01 X-17.5193 Y14.9508 
G01 X-17.7586 Y15.0285 
G01 X-17.9828 Y15.1428 
G01 X-18.1864 Y15.2907 
G01 X-18.3643 Y15.4686 
G01 X-18.5122 Y15.6722 
G01 X-18.6265 Y15.8963 
G01 X-18.7042 Y16.1357 
G01 X-18.7436 Y16.3842 
G01 X-18.7436 Y16.6358 
G01 X-18.7042 Y16.8843 
G01 X-18.6265 Y17.1236 
G01 X-18.5122 Y17.3478 
G01 X-18.3643 Y17.5514 
G01 X-18.2169 Y17.6989 
G01 X-18.9282 Y18.4102 
G01 X-22.8344 Y18.4102 
G01 X-22.8590 Y18.3856 
G01 X-23.0367 Y18.2565 
G01 X-23.1869 Y18.1800 
G01 X-23.0367 Y18.1034 
G01 X-22.8590 Y17.9744 
G01 X-22.7036 Y17.8190 
G01 X-22.5745 Y17.6413 
G01 X-22.4748 Y17.4456 
G01 X-22.4070 Y17.2368 
G01 X-22.3726 Y17.0198 
G01 X-22.3726 Y16.8002 
G01 X-22.4070 Y16.5832 
G01 X-22.4748 Y16.3743 
G01 X-22.5745 Y16.1787 
G01 X-22.7036 Y16.0010 
G01 X-22.8590 Y15.8456 
G01 X-23.0367 Y15.7165 
G01 X-23.1869 Y15.6400 
G01 X-23.0367 Y15.5634 
G01 X-22.8590 Y15.4344 
G01 X-22.7036 Y15.2790 
G01 X-22.5745 Y15.1013 
G01 X-22.4748 Y14.9056 
G01 X-22.4070 Y14.6968 
G01 X-22.3726 Y14.4798 
G01 X-22.3726 Y14.2602 
G01 X-22.4070 Y14.0432 
G01 X-22.4748 Y13.8344 
G01 X-22.5745 Y13.6387 
G01 X-22.7036 Y13.4610 
G01 X-22.8590 Y13.3056 
G01 X-23.0367 Y13.1765 
G01 X-23.1869 Y13.1000 
G01 X-23.0367 Y13.0235 
G01 X-22.8590 Y12.8943 
G01 X-22.8344 Y12.8698 
G01 X-14.6357 Y12.8698 
G01 X-13.1048 Y14.4007 
G01 X-13.1048 Y15.2895 
G01 X-13.2843 Y15.4686 
G01 X-13.3350 Y15.5383 
G01 X-13.3857 Y15.4686 
G01 X-13.5636 Y15.2907 
G01 X-13.7672 Y15.1428 
G01 X-13.9914 Y15.0285 
G01 X-14.2307 Y14.9508 
G01 X-14.4792 Y14.9114 
G01 X-14.7308 Y14.9114 
G01 X-14.9793 Y14.9508 
G01 X-15.2186 Y15.0285 
G01 X-15.4428 Y15.1428 
G01 X-15.6464 Y15.2907 
G01 X-15.8243 Y15.4686 
G01 X-15.8750 Y15.5383 
G00 Z2.5400 
G00 X-25.8731 Y15.6400 
G01 Z-0.2540 F254.00 
G01 X-26.0233 Y15.7165 F508.00 
G01 X-26.2010 Y15.8456 
G01 X-26.3563 Y16.0010 
G01 X-26.4855 Y16.1787 
G01 X-26.5852 Y16.3743 
G01 X-26.6074 Y16.4428 
G01 X-26.6074 Y14.8372 
G01 X-26.5852 Y14.9056 
G01 X-26.4855 Y15.1013 
G01 X-26.3563 Y15.2790 
G01 X-26.2010 Y15.4344 
G01 X-26.0233 Y15.5634 
G01 X-25.8731 Y15.6400 
G00 Z2.5400 
G00 X-26.6074 Y13.9028 
G01 Z-0.2540 F254.00 
G01 X-26.6074 Y12.2972 F508.00 
G01 X-26.5852 Y12.3656 
G01 X-26.4855 Y12.5613 
G01 X-26.3563 Y12.7390 
G01 X-26.2010 Y12.8943 
G01 X-26.0233 Y13.0235 
G01 X-25.8731 Y13.1000 
G01 X-26.0233 Y13.1765 
G01 X-26.2010 Y13.3056 
G01 X-26.3563 Y13.4610 
G01 X-26.4855 Y13.6387 
G01 X-26.5852 Y13.8344 
G01 X-26.6074 Y13.9028 
G00 Z2.5400 
G00 X-26.6074 Y11.3628 
G01 Z-0.2540 F254.00 
G01 X-26.6074 Y9.7572 F508.00 
G01 X-26.5852 Y9.8256 
G01 X-26.4855 Y10.0213 
G01 X-26.3563 Y10.1990 
G01 X-26.2010 Y10.3544 
G01 X-26.0233 Y10.4834 
G01 X-25.8731 Y10.5600 
G01 X-26.0233 Y10.6365 
G01 X-26.2010 Y10.7656 
G01 X-26.3563 Y10.9210 
G01 X-26.4855 Y11.0986 
G01 X-26.5852 Y11.2943 
G01 X-26.6074 Y11.3628 
G00 Z2.5400 
G00 X-26.6074 Y17.3772 
G01 Z-0.2540 F254.00 
G01 X-26.5852 Y17.4456 F508.00 
G01 X-26.4855 Y17.6413 
G01 X-26.3563 Y17.8190 
G01 X-26.2010 Y17.9744 
G01 X-26.0233 Y18.1034 
G01 X-25.8731 Y18.1800 
G01 X-26.0233 Y18.2565 
G01 X-26.2010 Y18.3856 
G01 X-26.3563 Y18.5410 
G01 X-26.4855 Y18.7187 
G01 X-26.5852 Y18.9143 
G01 X-26.6074 Y18.9828 
G01 X-26.6074 Y17.3772 
G00 Z2.5400 
G00 X-26.6074 Y19.9172 
G01 Z-0.2540 F254.00 
G01 X-26.5852 Y19.9856 F508.00 
G01 X-26.4855 Y20.1813 
G01 X-26.3563 Y20.3590 
G01 X-26.2010 Y20.5144 
G01 X-26.0233 Y20.6435 
G01 X-25.8731 Y20.7200 
G01 X-26.0233 Y20.7965 
G01 X-26.2010 Y20.9256 
G01 X-26.3563 Y21.0810 
G01 X-26.4855 Y21.2586 
G01 X-26.5852 Y21.4544 
G01 X-26.6074 Y21.5228 
G01 X-26.6074 Y19.9172 
G00 Z2.5400 
G00 X-26.6074 Y22.4572 
G01 Z-0.2540 F254.00 
G01 X-26.5852 Y22.5256 F508.00 
G01 X-26.4855 Y22.7213 
G01 X-26.3563 Y22.8990 
G01 X-26.2010 Y23.0543 
G01 X-26.0233 Y23.1835 
G01 X-25.8731 Y23.2600 
G01 X-26.0233 Y23.3365 
G01 X-26.2010 Y23.4656 
G01 X-26.3563 Y23.6210 
G01 X-26.4855 Y23.7986 
G01 X-26.5852 Y23.9944 
G01 X-26.6074 Y24.0628 
G01 X-26.6074 Y22.4572 
G00 Z2.5400 
G00 X-26.6074 Y24.9972 
G01 Z-0.2540 F254.00 
G01 X-26.5852 Y25.0656 F508.00 
G01 X-26.4855 Y25.2613 
G01 X-26.3563 Y25.4390 
G01 X-26.2010 Y25.5943 
G01 X-26.0233 Y25.7234 
G01 X-25.8731 Y25.8000 
G01 X-26.0233 Y25.8765 
G01 X-26.2010 Y26.0056 
G01 X-26.3563 Y26.1610 
G01 X-26.4855 Y26.3387 
G01 X-26.5852 Y26.5343 
G01 X-26.6074 Y26.6028 
G01 X-26.6074 Y24.9972 
G00 Z2.5400 
G00 X-16.1925 Y6.3500 
G01 Z-0.2540 F508.00 
G00 Z2.5400 
G00 X-11.1125 Y6.3500 
G01 Z-0.2540 F508.00 
G00 Z2.5400 
G00 X-12.0650 Y16.5100 
G01 Z-0.2540 F508.00 
G00 Z2.5400 
G00 X-14.6050 Y16.5100 
G01 Z-0.2540 F508.00 
G00 Z2.5400 
G00 X-17.1450 Y16.5100 
G01 Z-0.2540 F508.00 
G00 Z2.5400 
G00 X-9.5250 Y16.5100 
G01 Z-0.2540 F508.00 
G00 Z2.5400 
G00 X-1.6700 Y9.2900 
G01 Z-0.2540 F508.00 
G00 Z2.5400 
G00 X-24.5300 Y9.2900 
G01 Z-0.2540 F508.00 
G00 Z2.5400 
G00 X-1.6700 Y24.5300 
G01 Z-0.2540 F508.00 
G00 Z2.5400 
G00 X-1.6700 Y21.9900 
G01 Z-0.2540 F508.00 
G00 Z2.5400 
G00 X-24.5300 Y21.9900 
G01 Z-0.2540 F508.00 
G00 Z2.5400 
G00 X-24.5300 Y19.4500 
G01 Z-0.2540 F508.00 
G00 Z2.5400 
G00 X-24.5300 Y16.9100 
G01 Z-0.2540 F508.00 
G00 Z2.5400 
G00 X-24.5300 Y14.3700 
G01 Z-0.2540 F508.00 
G00 Z2.5400 
G00 X-1.6700 Y19.4500 
G01 Z-0.2540 F508.00 
G00 Z2.5400 
G00 X-1.6700 Y16.9100 
G01 Z-0.2540 F508.00 
G00 Z2.5400 
G00 X-1.6700 Y14.3700 
G01 Z-0.2540 F508.00 
G00 Z2.5400 
G00 X-1.6700 Y11.8300 
G01 Z-0.2540 F508.00 
G00 Z2.5400 
G00 X-24.5300 Y11.8300 
G01 Z-0.2540 F508.00 
G00 Z2.5400 
G00 X-1.6700 Y27.0700 
G01 Z-0.2540 F508.00 
G00 Z2.5400 
G00 X-24.5300 Y24.5300 
G01 Z-0.2540 F508.00 
G00 Z2.5400 
G00 X-24.5300 Y27.0700 
G01 Z-0.2540 F508.00 
G00 Z2.5400 
G00 Z12.7000 
M05
M02
